;FLAVOR:Marlin
;TIME:1183
;Filament used: 1.26711m, 0m
;Layer height: 0.15
;MINX:91.2
;MINY:91.202
;MINZ:0.3
;MAXX:108.8
;MAXY:108.798
;MAXZ:45.9
;Generated with Cura_SteamEngine 4.4.1
T0
M140 S40
M105
M190 S40
M104 S200
M105
M109 S200
M82 ;absolute extrusion mode
G28 ;Home
G1 Z15.0 F6000 ;Move the platform down 15mm
;Prime the extruder
G92 E0
G1 F200 E3
G92 E0
G92 E0
G92 E0
G1 F1500 E-6.5
;LAYER_COUNT:305
;LAYER:0
M107
;MESH:axle.stl
G0 F3600 X101.307 Y92.717 Z0.3
;TYPE:WALL-INNER
G1 F1500 E0
G1 F1800 X101.983 Y92.872 E0.0346
G1 X102.603 Y93.075 E0.06715
G1 X103.24 Y93.348 E0.10172
G1 X103.827 Y93.668 E0.13508
G1 X104.384 Y94.04 E0.1685
G1 X104.911 Y94.467 E0.20233
G1 X105.388 Y94.929 E0.23546
G1 X105.829 Y95.444 E0.26929
G1 X106.218 Y95.992 E0.30282
G1 X106.561 Y96.582 E0.33687
G1 X106.844 Y97.189 E0.37028
G1 X107.067 Y97.81 E0.4032
G1 X107.24 Y98.477 E0.43758
G1 X107.348 Y99.137 E0.47094
G1 X107.396 Y99.801 E0.50416
G1 X107.383 Y100.477 E0.53789
G1 X107.309 Y101.155 E0.57191
G1 X107.172 Y101.821 E0.60584
G1 X106.981 Y102.454 E0.63882
G1 X106.729 Y103.077 E0.67235
G1 X106.418 Y103.681 E0.70624
G1 X106.055 Y104.254 E0.74009
G1 X105.651 Y104.776 E0.77302
G1 X105.185 Y105.277 E0.80715
G1 X104.686 Y105.726 E0.84064
G1 X104.148 Y106.127 E0.87412
G1 X103.578 Y106.475 E0.90744
G1 X102.965 Y106.778 E0.94155
G1 X102.342 Y107.017 E0.97484
G1 X101.694 Y107.202 E1.00846
G1 X101.024 Y107.326 E1.04246
G1 X100.361 Y107.389 E1.07568
G1 X99.679 Y107.393 E1.10971
G1 X99.027 Y107.334 E1.14237
G1 X98.346 Y107.212 E1.17689
G1 X97.7 Y107.032 E1.21034
G1 X97.082 Y106.799 E1.24329
G1 X96.454 Y106.493 E1.27815
G1 X95.891 Y106.153 E1.31096
G1 X95.352 Y105.757 E1.34433
G1 X94.844 Y105.306 E1.37822
G1 X94.388 Y104.823 E1.41136
G1 X93.961 Y104.273 E1.4461
G1 X93.607 Y103.724 E1.47869
G1 X93.292 Y103.118 E1.51276
G1 X93.034 Y102.492 E1.54654
G1 X92.84 Y101.86 E1.57952
G1 X92.699 Y101.195 E1.61344
G1 X92.622 Y100.53 E1.64684
G1 X92.603 Y99.858 E1.68038
G1 X92.646 Y99.181 E1.71422
G1 X92.751 Y98.517 E1.74776
G1 X92.917 Y97.86 E1.78157
G1 X93.137 Y97.233 E1.81472
G1 X93.424 Y96.609 E1.84898
G1 X93.751 Y96.038 E1.88181
G1 X94.141 Y95.484 E1.91561
G1 X94.583 Y94.961 E1.94978
G1 X95.056 Y94.495 E1.9829
G1 X95.57 Y94.074 E2.01605
G1 X96.146 Y93.686 E2.0507
G1 X96.732 Y93.363 E2.08408
G1 X97.336 Y93.098 E2.11699
G1 X97.981 Y92.883 E2.15091
G1 X98.642 Y92.728 E2.18478
G1 X99.295 Y92.637 E2.21767
G1 X99.982 Y92.603 E2.25199
G1 X100.663 Y92.631 E2.28599
G1 X101.307 Y92.717 E2.31841
G0 F3600 X101.386 Y92.324
;TYPE:WALL-OUTER
G1 F1800 X102.084 Y92.485 E2.35414
G1 X102.752 Y92.703 E2.3892
G1 X103.406 Y92.984 E2.42471
G1 X104.04 Y93.329 E2.46072
G1 X104.622 Y93.718 E2.49565
G1 X105.177 Y94.167 E2.53126
G1 X105.678 Y94.653 E2.56609
G1 X106.145 Y95.198 E2.60189
G1 X106.555 Y95.775 E2.63721
G1 X106.918 Y96.399 E2.67322
G1 X107.21 Y97.027 E2.70778
G1 X107.45 Y97.694 E2.74314
G1 X107.633 Y98.399 E2.77948
G1 X107.746 Y99.091 E2.81446
G1 X107.796 Y99.79 E2.84942
G1 X107.783 Y100.507 E2.8852
G1 X107.705 Y101.216 E2.92079
G1 X107.561 Y101.915 E2.95639
G1 X107.358 Y102.59 E2.99156
G1 X107.093 Y103.245 E3.02681
G1 X106.767 Y103.878 E3.06233
G1 X106.384 Y104.482 E3.09801
G1 X105.957 Y105.034 E3.13283
G1 X105.469 Y105.559 E3.16859
G1 X104.933 Y106.041 E3.20455
G1 X104.379 Y106.454 E3.23903
G1 X103.763 Y106.83 E3.27503
G1 X103.133 Y107.141 E3.31008
G1 X102.459 Y107.4 E3.34611
G1 X101.792 Y107.59 E3.38071
G1 X101.079 Y107.722 E3.41688
G1 X100.379 Y107.789 E3.45197
G1 X99.666 Y107.793 E3.48754
G1 X98.965 Y107.73 E3.52265
G1 X98.265 Y107.604 E3.55814
G1 X97.574 Y107.412 E3.59392
G1 X96.918 Y107.164 E3.62891
G1 X96.268 Y106.848 E3.66496
G1 X95.668 Y106.486 E3.69992
G1 X95.097 Y106.066 E3.73529
G1 X94.569 Y105.597 E3.77052
G1 X94.079 Y105.077 E3.80617
G1 X93.637 Y104.509 E3.84207
G1 X93.259 Y103.922 E3.87691
G1 X92.93 Y103.29 E3.91245
G1 X92.659 Y102.632 E3.94796
G1 X92.452 Y101.958 E3.98313
G1 X92.304 Y101.26 E4.01873
G1 X92.222 Y100.553 E4.05424
G1 X92.203 Y99.855 E4.08908
G1 X92.248 Y99.137 E4.12497
G1 X92.359 Y98.433 E4.16052
G1 X92.532 Y97.749 E4.19572
G1 X92.769 Y97.076 E4.23132
G1 X93.065 Y96.43 E4.26677
G1 X93.412 Y95.825 E4.30157
G1 X93.827 Y95.235 E4.33755
G1 X94.284 Y94.694 E4.37289
G1 X94.788 Y94.199 E4.40813
G1 X95.341 Y93.746 E4.44379
G1 X95.929 Y93.349 E4.47919
G1 X96.553 Y93.005 E4.51474
G1 X97.195 Y92.724 E4.5497
G1 X97.872 Y92.498 E4.58531
G1 X98.569 Y92.334 E4.62103
G1 X99.265 Y92.237 E4.65609
G1 X99.978 Y92.202 E4.69171
G1 X100.689 Y92.231 E4.72721
G1 X101.386 Y92.324 E4.76229
G0 F3600 X101.58 Y92.368
G0 X101.23 Y93.099
;TYPE:SKIN
G1 F1800 X101.876 Y93.248 E4.79537
G1 X102.461 Y93.439 E4.82607
G1 X103.069 Y93.699 E4.85906
G1 X103.632 Y94.006 E4.89105
G1 X104.15 Y94.353 E4.92216
G1 X104.651 Y94.759 E4.95433
G1 X105.106 Y95.199 E4.98591
G1 X105.521 Y95.684 E5.01775
G1 X105.893 Y96.208 E5.04981
G1 X106.216 Y96.764 E5.08189
G1 X106.48 Y97.33 E5.11305
G1 X106.691 Y97.916 E5.14412
G1 X106.862 Y98.575 E5.17809
G1 X106.96 Y99.175 E5.20842
G1 X107.006 Y99.811 E5.24023
G1 X106.993 Y100.45 E5.27212
G1 X106.923 Y101.099 E5.30469
G1 X106.793 Y101.727 E5.33668
G1 X106.612 Y102.327 E5.36795
G1 X106.38 Y102.903 E5.39893
G1 X106.081 Y103.483 E5.43148
G1 X105.728 Y104.041 E5.46443
G1 X105.353 Y104.524 E5.49493
G1 X104.919 Y104.992 E5.52678
G1 X104.433 Y105.43 E5.55942
G1 X103.935 Y105.8 E5.59037
G1 X103.385 Y106.136 E5.62252
G1 X102.813 Y106.418 E5.65434
G1 X102.219 Y106.646 E5.68608
G1 X101.609 Y106.821 E5.71774
G1 X100.963 Y106.94 E5.75052
G1 X100.344 Y106.999 E5.78154
G1 X99.691 Y107.003 E5.81412
G1 X99.086 Y106.948 E5.84442
G1 X98.435 Y106.831 E5.87742
G1 X97.819 Y106.66 E5.90932
G1 X97.239 Y106.441 E5.94025
G1 X96.634 Y106.146 E5.97383
G1 X96.108 Y105.829 E6.00447
G1 X95.602 Y105.457 E6.0358
G1 X95.113 Y105.023 E6.06842
G1 X94.683 Y104.568 E6.09965
G1 X94.279 Y104.046 E6.13258
G1 X93.945 Y103.528 E6.16333
G1 X93.645 Y102.951 E6.19578
G1 X93.402 Y102.361 E6.22761
G1 X93.219 Y101.763 E6.25881
G1 X93.085 Y101.134 E6.2909
G1 X93.012 Y100.497 E6.32289
G1 X92.993 Y99.871 E6.35413
G1 X93.034 Y99.224 E6.38648
G1 X93.136 Y98.584 E6.41881
G1 X93.291 Y97.972 E6.45031
G1 X93.495 Y97.39 E6.48107
G1 X93.775 Y96.782 E6.51447
G1 X94.082 Y96.245 E6.54533
G1 X94.446 Y95.728 E6.57687
G1 X94.881 Y95.213 E6.61051
G1 X95.308 Y94.793 E6.64039
G1 X95.8 Y94.39 E6.67212
G1 X96.356 Y94.016 E6.70555
G1 X96.907 Y93.712 E6.73694
G1 X97.473 Y93.464 E6.76777
G1 X98.084 Y93.259 E6.79993
G1 X98.719 Y93.111 E6.83245
G1 X99.323 Y93.027 E6.86288
G1 X99.986 Y92.993 E6.896
G1 X100.64 Y93.021 E6.92866
G1 X101.23 Y93.099 E6.95835
G0 F3600 X105.18 Y95.564
G1 F1800 X104.421 Y94.804 E7.01194
G1 X104.351 Y94.734
G0 F3600 X102.854 Y93.803
G1 F1800 X106.194 Y97.143 E7.24759
G1 X106.264 Y97.213
G0 F3600 X106.541 Y98.055
G1 F1800 X101.946 Y93.461 E7.57176
G0 F3600 X101.195 Y93.275
G1 F1800 X106.716 Y98.796 E7.96129
G0 F3600 X106.799 Y99.445
G1 F1800 X100.551 Y93.198 E8.40209
G0 F3600 X99.962 Y93.174
G1 F1800 X106.82 Y100.032 E8.88596
G0 F3600 X106.797 Y100.575
G1 F1800 X99.425 Y93.203 E9.40609
G0 F3600 X98.922 Y93.265
G1 F1800 X106.741 Y101.084 E9.95776
G0 F3600 X106.644 Y101.553
G1 F1800 X98.45 Y93.359 E10.5359
G0 F3600 X98.002 Y93.477
G1 F1800 X106.523 Y101.998 E11.1371
G0 F3600 X106.379 Y102.42
G1 F1800 X97.578 Y93.618 E11.75809
G0 F3600 X97.181 Y93.787
G1 F1800 X106.217 Y102.823 E12.39563
G0 F3600 X106.025 Y103.196
G1 F1800 X96.803 Y93.975 E13.04626
G0 F3600 X96.44 Y94.177
G1 F1800 X105.819 Y103.557 E13.70803
G0 F3600 X105.6 Y103.903
G1 F1800 X96.101 Y94.404 E14.37824
G0 F3600 X95.775 Y94.644
G1 F1800 X105.356 Y104.224 E15.05419
G0 F3600 X105.098 Y104.533
G1 F1800 X95.464 Y94.898 E15.73396
G0 F3600 X95.175 Y95.175
G1 F1800 X104.826 Y104.826 E16.41489
G0 F3600 X104.53 Y105.096
G1 F1800 X94.9 Y95.466 E17.09434
G0 F3600 X94.642 Y95.774
G1 F1800 X104.226 Y105.357 E17.77051
G0 F3600 X103.901 Y105.598
G1 F1800 X94.403 Y96.1 E18.44064
G0 F3600 X94.177 Y96.44
G1 F1800 X103.556 Y105.819 E19.10238
G0 F3600 X103.198 Y106.027
G1 F1800 X93.971 Y96.8 E19.75339
G0 F3600 X93.787 Y97.181
G1 F1800 X102.818 Y106.213 E20.39062
G0 F3600 X102.415 Y106.375
G1 F1800 X93.618 Y97.578 E21.01129
G0 F3600 X93.472 Y97.997
G1 F1800 X101.996 Y106.522 E21.61274
G0 F3600 X101.555 Y106.646
G1 F1800 X93.355 Y98.446 E22.1913
G0 F3600 X93.263 Y98.92
G1 F1800 X101.078 Y106.734 E22.74265
G0 F3600 X100.573 Y106.795
G1 F1800 X93.2 Y99.423 E23.26282
G0 F3600 X93.174 Y99.962
G1 F1800 X100.031 Y106.819 E23.74662
G0 F3600 X99.445 Y106.799
G1 F1800 X93.199 Y100.553 E24.18731
G0 F3600 X93.285 Y101.204
G1 F1800 X98.792 Y106.712 E24.57589
G0 F3600 X98.051 Y106.536
G1 F1800 X93.464 Y101.949 E24.89953
G1 X93.394 Y101.879
G0 F3600 X93.799 Y102.85
G1 F1800 X97.14 Y106.191 E25.13525
G1 X97.21 Y106.261
G0 F3600 X95.571 Y105.187
G1 F1800 X94.772 Y104.388 E25.19163
G1 X94.702 Y104.318
;MESH:NONMESH
G0 F600 X94.702 Y104.318 Z0.45
G0 F3600 X101.281 Y92.814
G0 X101.294 Y92.716
;TIME_ELAPSED:22.029347
;LAYER:1
M140 S40
M106 S255
;TYPE:WALL-INNER
;MESH:axle.stl
G1 F3300 X101.94 Y92.86 E25.20814
G1 X102.581 Y93.066 E25.22493
G1 X103.208 Y93.334 E25.24194
G1 X103.793 Y93.649 E25.25852
G1 X104.366 Y94.028 E25.27565
G1 X104.878 Y94.439 E25.29203
G1 X105.375 Y94.918 E25.30925
G1 X105.805 Y95.415 E25.32564
G1 X106.209 Y95.978 E25.34293
G1 X106.538 Y96.538 E25.35913
G1 X106.83 Y97.159 E25.37625
G1 X107.059 Y97.79 E25.39299
G1 X107.232 Y98.448 E25.40997
G1 X107.343 Y99.104 E25.42656
G1 X107.394 Y99.77 E25.44322
G1 X107.384 Y100.449 E25.46016
G1 X107.313 Y101.124 E25.4771
G1 X107.182 Y101.77 E25.49354
G1 X106.985 Y102.435 E25.51084
G1 X106.739 Y103.049 E25.52734
G1 X106.433 Y103.653 E25.54423
G1 X106.074 Y104.222 E25.56101
G1 X105.667 Y104.756 E25.57776
G1 X105.206 Y105.256 E25.59473
G1 X104.714 Y105.702 E25.61129
G1 X104.167 Y106.113 E25.62836
G1 X103.606 Y106.459 E25.6448
G1 X102.995 Y106.764 E25.66183
G1 X102.364 Y107.009 E25.67872
G1 X101.724 Y107.194 E25.69534
G1 X101.065 Y107.319 E25.71207
G1 X100.389 Y107.386 E25.72902
G1 X99.717 Y107.394 E25.74578
G1 X99.046 Y107.336 E25.76258
G1 X98.386 Y107.221 E25.77929
G1 X97.728 Y107.041 E25.79631
G1 X97.101 Y106.807 E25.813
G1 X96.498 Y106.516 E25.82971
G1 X95.915 Y106.167 E25.84666
G1 X95.368 Y105.769 E25.86353
G1 X94.871 Y105.331 E25.88005
G1 X94.403 Y104.837 E25.89703
G1 X93.99 Y104.314 E25.91365
G1 X93.62 Y103.744 E25.9306
G1 X93.309 Y103.153 E25.94726
G1 X93.049 Y102.529 E25.96413
G1 X92.845 Y101.874 E25.98124
G1 X92.707 Y101.235 E25.99755
G1 X92.625 Y100.553 E26.01468
G1 X92.604 Y99.882 E26.03143
G1 X92.644 Y99.209 E26.04825
G1 X92.745 Y98.542 E26.06507
G1 X92.906 Y97.9 E26.08159
G1 X93.13 Y97.256 E26.09859
G1 X93.403 Y96.651 E26.11515
G1 X93.749 Y96.043 E26.1326
G1 X94.124 Y95.504 E26.14898
G1 X94.55 Y94.996 E26.16552
G1 X95.036 Y94.515 E26.18258
G1 X95.55 Y94.091 E26.1992
G1 X96.107 Y93.71 E26.21603
G1 X96.698 Y93.381 E26.2329
G1 X97.312 Y93.108 E26.24967
G1 X97.962 Y92.89 E26.26677
G1 X98.6 Y92.737 E26.28313
G1 X99.278 Y92.639 E26.30022
G1 X99.94 Y92.603 E26.31676
G1 X100.623 Y92.628 E26.33381
G1 X101.294 Y92.716 E26.35069
G0 F5400 X101.355 Y92.32
;TYPE:WALL-OUTER
G1 F2100 X102.053 Y92.476 E26.36853
G1 X102.718 Y92.69 E26.38596
G1 X103.381 Y92.973 E26.40394
G1 X104.003 Y93.308 E26.42156
G1 X104.596 Y93.7 E26.4393
G1 X105.147 Y94.142 E26.45692
G1 X105.662 Y94.639 E26.47477
G1 X106.124 Y95.173 E26.49238
G1 X106.541 Y95.753 E26.5102
G1 X106.893 Y96.353 E26.52756
G1 X107.199 Y97.005 E26.54552
G1 X107.442 Y97.675 E26.5633
G1 X107.622 Y98.357 E26.5809
G1 X107.741 Y99.06 E26.59868
G1 X107.794 Y99.757 E26.61612
G1 X107.784 Y100.475 E26.63403
G1 X107.709 Y101.181 E26.65174
G1 X107.569 Y101.874 E26.66938
G1 X107.366 Y102.559 E26.6872
G1 X107.102 Y103.219 E26.70493
G1 X106.783 Y103.849 E26.72255
G1 X106.402 Y104.452 E26.74034
G1 X105.976 Y105.01 E26.75785
G1 X105.486 Y105.542 E26.77589
G1 X104.969 Y106.01 E26.79329
G1 X104.396 Y106.441 E26.81118
G1 X103.795 Y106.812 E26.82879
G1 X103.158 Y107.13 E26.84655
G1 X102.497 Y107.387 E26.86425
G1 X101.813 Y107.584 E26.882
G1 X101.123 Y107.715 E26.89952
G1 X100.411 Y107.786 E26.91737
G1 X99.698 Y107.794 E26.93516
G1 X98.999 Y107.734 E26.95266
G1 X98.295 Y107.611 E26.97049
G1 X97.605 Y107.422 E26.98833
G1 X96.948 Y107.177 E27.00582
G1 X96.311 Y106.87 E27.02346
G1 X95.696 Y106.502 E27.04134
G1 X95.116 Y106.08 E27.05923
G1 X94.593 Y105.619 E27.07662
G1 X94.101 Y105.1 E27.09446
G1 X93.664 Y104.545 E27.11208
G1 X93.274 Y103.945 E27.12993
G1 X92.947 Y103.324 E27.14744
G1 X92.672 Y102.663 E27.1653
G1 X92.458 Y101.978 E27.1832
G1 X92.312 Y101.302 E27.20045
G1 X92.225 Y100.58 E27.2186
G1 X92.204 Y99.882 E27.23601
G1 X92.246 Y99.169 E27.25383
G1 X92.354 Y98.459 E27.27175
G1 X92.523 Y97.784 E27.2891
G1 X92.76 Y97.102 E27.30711
G1 X93.045 Y96.471 E27.32439
G1 X93.405 Y95.838 E27.34255
G1 X93.807 Y95.26 E27.36011
G1 X94.255 Y94.726 E27.3775
G1 X94.77 Y94.216 E27.39558
G1 X95.31 Y93.77 E27.41305
G1 X95.898 Y93.368 E27.43082
G1 X96.52 Y93.022 E27.44857
G1 X97.165 Y92.736 E27.46618
G1 X97.851 Y92.505 E27.48423
G1 X98.526 Y92.343 E27.50155
G1 X99.233 Y92.241 E27.51937
G1 X99.945 Y92.203 E27.53715
G1 X100.657 Y92.229 E27.55493
G1 X101.355 Y92.32 E27.57248
G0 F5400 X101.55 Y92.363
G0 X101.226 Y93.1
;TYPE:SKIN
G1 F1800 X101.835 Y93.236 E27.58805
G1 X102.434 Y93.428 E27.60374
G1 X103.048 Y93.691 E27.6204
G1 X103.594 Y93.984 E27.63586
G1 X104.135 Y94.342 E27.65204
G1 X104.615 Y94.728 E27.66741
G1 X105.094 Y95.191 E27.68403
G1 X105.5 Y95.66 E27.6995
G1 X105.884 Y96.192 E27.71587
G1 X106.188 Y96.711 E27.73087
G1 X106.468 Y97.306 E27.74727
G1 X106.688 Y97.913 E27.76338
G1 X106.852 Y98.537 E27.77947
G1 X106.957 Y99.155 E27.79511
G1 X107.004 Y99.764 E27.81035
G1 X106.994 Y100.424 E27.82681
G1 X106.927 Y101.067 E27.84294
G1 X106.804 Y101.673 E27.85837
G1 X106.615 Y102.308 E27.87489
G1 X106.383 Y102.888 E27.89048
G1 X106.096 Y103.456 E27.90635
G1 X105.75 Y104.004 E27.92252
G1 X105.377 Y104.495 E27.9379
G1 X104.926 Y104.983 E27.95447
G1 X104.465 Y105.401 E27.97
G1 X103.949 Y105.789 E27.9861
G1 X103.414 Y106.119 E28.00178
G1 X102.832 Y106.409 E28.018
G1 X102.251 Y106.636 E28.03356
G1 X101.625 Y106.816 E28.04981
G1 X101.013 Y106.932 E28.06535
G1 X100.368 Y106.996 E28.08152
G1 X99.726 Y107.004 E28.09753
G1 X99.101 Y106.95 E28.11318
G1 X98.472 Y106.84 E28.12911
G1 X97.847 Y106.67 E28.14527
G1 X97.249 Y106.446 E28.1612
G1 X96.695 Y106.179 E28.17654
G1 X96.132 Y105.842 E28.19291
G1 X95.607 Y105.459 E28.20912
G1 X95.143 Y105.05 E28.22455
G1 X94.696 Y104.579 E28.24074
G1 X94.303 Y104.081 E28.25657
G1 X93.956 Y103.546 E28.27248
G1 X93.66 Y102.983 E28.28834
G1 X93.412 Y102.386 E28.30447
G1 X93.222 Y101.775 E28.32043
G1 X93.094 Y101.181 E28.33559
G1 X93.013 Y100.506 E28.35255
G1 X92.994 Y99.894 E28.36782
G1 X93.034 Y99.241 E28.38414
G1 X93.129 Y98.613 E28.39998
G1 X93.281 Y98.01 E28.4155
G1 X93.492 Y97.4 E28.4316
G1 X93.746 Y96.837 E28.447
G1 X94.079 Y96.251 E28.46382
G1 X94.432 Y95.744 E28.47923
G1 X94.837 Y95.261 E28.49495
G1 X95.3 Y94.803 E28.5112
G1 X95.785 Y94.402 E28.5269
G1 X96.313 Y94.041 E28.54285
G1 X96.867 Y93.733 E28.55866
G1 X97.455 Y93.471 E28.57472
G1 X98.074 Y93.264 E28.591
G1 X98.67 Y93.121 E28.60629
G1 X99.311 Y93.029 E28.62244
G1 X99.948 Y92.993 E28.63836
G1 X100.6 Y93.018 E28.65464
G1 X101.226 Y93.1 E28.67039
G0 F5400 X94.154 Y96.481
G1 F1800 X96.486 Y94.149 E28.75265
G1 X96.556 Y94.079
G0 F5400 X97.584 Y93.616
G1 F1800 X93.619 Y97.582 E28.89255
G1 X93.549 Y97.652
G0 F5400 X93.369 Y98.398
G1 F1800 X98.396 Y93.371 E29.06989
G0 F5400 X99.09 Y93.242
G1 F1800 X93.238 Y99.094 E29.27633
G0 F5400 X93.185 Y99.713
G1 F1800 X99.711 Y93.186 E29.50657
G0 F5400 X100.279 Y93.185
G1 F1800 X93.185 Y100.279 E29.75683
G0 F5400 X93.229 Y100.8
G1 F1800 X100.804 Y93.225 E30.02406
G0 F5400 X101.295 Y93.299
G1 F1800 X93.302 Y101.293 E30.30605
G0 F5400 X93.404 Y101.756
G1 F1800 X101.758 Y93.403 E30.60075
G0 F5400 X102.188 Y93.538
G1 F1800 X93.538 Y102.188 E30.9059
G0 F5400 X93.695 Y102.596
G1 F1800 X102.598 Y93.694 E31.21996
G0 F5400 X102.992 Y93.865
G1 F1800 X93.868 Y102.99 E31.54185
G0 F5400 X94.063 Y103.36
