;FLAVOR:Marlin
;TIME:1046
;Filament used: 0.842367m, 0m
;Layer height: 0.15
;MINX:74.8
;MINY:90.278
;MINZ:0.3
;MAXX:125.2
;MAXY:109.722
;MAXZ:4.65
;Generated with Cura_SteamEngine 4.4.1
T0
M140 S40
M105
M190 S40
M104 S200
M105
M109 S200
M82 ;absolute extrusion mode
G28 ;Home
G1 Z15.0 F6000 ;Move the platform down 15mm
;Prime the extruder
G92 E0
G1 F200 E3
G92 E0
G92 E0
G92 E0
G1 F1500 E-6.5
;LAYER_COUNT:30
;LAYER:0
M107
;MESH:DT-V2-END_PLATE.stl
G0 F3600 X82.4 Y92.244 Z0.3
;TYPE:WALL-OUTER
G1 F1500 E0
G1 F1800 X81.858 Y91.92 E0.0315
G1 X81.355 Y91.771 E0.05768
G1 X80.959 Y91.736 E0.07751
G1 X78.555 Y91.735 E0.19745
G1 X77.944 Y91.821 E0.22823
G1 X77.451 Y92.021 E0.25477
G1 X76.946 Y92.399 E0.28624
G1 X76.615 Y92.811 E0.31261
G1 X76.372 Y93.329 E0.34115
G1 X76.264 Y93.848 E0.3676
G1 X76.297 Y94.476 E0.39898
G1 X76.454 Y94.983 E0.42546
G1 X76.75 Y95.471 E0.45393
G1 X77.116 Y95.846 E0.48007
G1 X77.51 Y96.104 E0.50357
G1 X78.103 Y96.312 E0.53492
G1 X78.559 Y96.358 E0.55779
G1 X80.964 Y96.359 E0.67777
G1 X81.575 Y96.272 E0.70856
G1 X82.067 Y96.073 E0.73504
G1 X82.572 Y95.694 E0.76654
G1 X82.904 Y95.282 E0.79294
G1 X83.147 Y94.764 E0.82149
G1 X83.254 Y94.246 E0.84787
G1 X83.222 Y93.618 E0.87925
G1 X83.065 Y93.111 E0.90573
G1 X82.769 Y92.623 E0.9342
G1 X82.4 Y92.244 E0.96059
G0 F3600 X82.229 Y92.142
G0 X82.486 Y91.714
G0 X83.118 Y92.353
G0 X83.658 Y93.542
G0 X83.566 Y94.903
G0 X81.241 Y100.248
G0 X80.962 Y101.357
G0 X80.975 Y102.703
G0 X81.468 Y102.628
G1 F1800 X81.641 Y103.156 E0.98831
G1 X81.899 Y103.666 E1.01682
G1 X82.225 Y104.115 E1.04451
G1 X82.617 Y104.508 E1.0722
G1 X83.079 Y104.845 E1.10073
G1 X83.573 Y105.098 E1.12842
G1 X84.117 Y105.276 E1.15698
G1 X84.665 Y105.363 E1.18466
G1 X85.219 Y105.364 E1.2123
G1 X85.784 Y105.276 E1.24083
G1 X86.313 Y105.104 E1.26858
G1 X86.822 Y104.845 E1.29707
G1 X87.271 Y104.52 E1.32472
G1 X87.665 Y104.128 E1.35245
G1 X88.002 Y103.666 E1.38098
G1 X88.254 Y103.171 E1.40869
G1 X88.433 Y102.628 E1.43722
G1 X88.519 Y102.079 E1.46494
G1 X88.52 Y101.526 E1.49253
G1 X88.433 Y100.96 E1.5211
G1 X88.26 Y100.432 E1.54882
G1 X88.002 Y99.922 E1.57733
G1 X87.676 Y99.473 E1.60502
G1 X87.284 Y99.08 E1.63271
G1 X86.822 Y98.743 E1.66124
G1 X86.328 Y98.49 E1.68893
G1 X85.784 Y98.312 E1.71749
G1 X85.236 Y98.225 E1.74517
G1 X84.682 Y98.224 E1.77281
G1 X84.117 Y98.312 E1.80133
G1 X83.588 Y98.484 E1.82909
G1 X83.079 Y98.743 E1.85758
G1 X82.63 Y99.068 E1.88523
G1 X82.236 Y99.46 E1.91296
G1 X81.899 Y99.922 E1.94149
G1 X81.647 Y100.417 E1.9692
G1 X81.468 Y100.96 E1.99773
G1 X81.382 Y101.509 E2.02545
G1 X81.381 Y102.062 E2.05304
G1 X81.468 Y102.628 E2.08161
G0 F3600 X81.53 Y102.818
G0 X81.055 Y102.973
G0 X81.523 Y103.895
G0 X82.33 Y104.843
G0 X83.404 Y105.504
G0 X84.63 Y105.802
G0 X98.46 Y103.97
G0 X99.71 Y103.518
G0 X100.881 Y102.7
G0 X101.786 Y101.594
G0 X102.568 Y99.543
G0 X102.069 Y99.522
G1 F1800 X102.105 Y98.64 E2.12565
G1 X102.029 Y97.988 E2.1584
G1 X101.864 Y97.353 E2.19113
G1 X101.614 Y96.747 E2.22384
G1 X101.283 Y96.181 E2.25655
G1 X100.878 Y95.667 E2.28919
G1 X100.406 Y95.212 E2.3219
G1 X99.876 Y94.824 E2.35467
G1 X99.298 Y94.515 E2.38737
G1 X98.685 Y94.287 E2.42
G1 X98.136 Y94.161 E2.4481
G1 X97.485 Y94.096 E2.48074
G1 X96.831 Y94.12 E2.51339
G1 X96.185 Y94.232 E2.5461
G1 X95.561 Y94.433 E2.57881
G1 X94.971 Y94.717 E2.61148
G1 X94.424 Y95.079 E2.6442
G1 X93.932 Y95.513 E2.67693
G1 X93.506 Y96.009 E2.70955
G1 X93.196 Y96.481 E2.73773
G1 X92.907 Y97.066 E2.77028
G1 X92.703 Y97.689 E2.80298
G1 X92.584 Y98.333 E2.83566
G1 X92.555 Y98.989 E2.86842
G1 X92.616 Y99.641 E2.90109
G1 X92.764 Y100.279 E2.93376
G1 X93 Y100.891 E2.96649
G1 X93.317 Y101.464 E2.99916
G1 X93.653 Y101.918 E3.02734
G1 X94.102 Y102.392 E3.05991
G1 X94.614 Y102.802 E3.09263
G1 X95.178 Y103.137 E3.12536
G1 X95.782 Y103.393 E3.15809
G1 X96.412 Y103.563 E3.19064
G1 X97.063 Y103.645 E3.22338
G1 X97.718 Y103.637 E3.25606
G1 X98.366 Y103.539 E3.28876
G1 X98.908 Y103.383 E3.3169
G1 X99.51 Y103.126 E3.34955
G1 X100.072 Y102.788 E3.38227
G1 X100.581 Y102.377 E3.41491
G1 X101.031 Y101.899 E3.44766
G1 X101.41 Y101.365 E3.48033
G1 X101.714 Y100.783 E3.51309
G1 X101.934 Y100.166 E3.54577
G1 X102.069 Y99.522 E3.5786
G0 F3600 X102.077 Y99.322
G0 X102.576 Y99.343
G0 X105.74 Y102.703
G0 X106.233 Y102.628
G1 F1800 X106.406 Y103.156 E3.60632
G1 X106.664 Y103.666 E3.63483
G1 X106.99 Y104.115 E3.66251
G1 X107.382 Y104.508 E3.69021
G1 X107.844 Y104.845 E3.71874
G1 X108.338 Y105.098 E3.74643
G1 X108.882 Y105.276 E3.77498
G1 X109.43 Y105.363 E3.80267
G1 X109.984 Y105.364 E3.83031
G1 X110.549 Y105.276 E3.85883
G1 X111.078 Y105.104 E3.88658
G1 X111.587 Y104.845 E3.91508
G1 X112.036 Y104.52 E3.94273
G1 X112.43 Y104.128 E3.97046
G1 X112.767 Y103.666 E3.99899
G1 X113.019 Y103.171 E4.0267
G1 X113.198 Y102.628 E4.05522
G1 X113.284 Y102.079 E4.08295
G1 X113.285 Y101.526 E4.11054
G1 X113.198 Y100.96 E4.13911
G1 X113.025 Y100.432 E4.16683
G1 X112.767 Y99.922 E4.19534
G1 X112.441 Y99.473 E4.22302
G1 X112.049 Y99.08 E4.25072
G1 X111.587 Y98.743 E4.27925
G1 X111.093 Y98.49 E4.30694
G1 X110.549 Y98.312 E4.33549
G1 X110.001 Y98.225 E4.36318
G1 X109.447 Y98.224 E4.39081
G1 X108.882 Y98.312 E4.41934
G1 X108.353 Y98.484 E4.44709
G1 X107.844 Y98.743 E4.47559
G1 X107.395 Y99.068 E4.50324
G1 X107.001 Y99.46 E4.53097
G1 X106.664 Y99.922 E4.5595
G1 X106.412 Y100.417 E4.58721
G1 X106.233 Y100.96 E4.61573
G1 X106.147 Y101.509 E4.64346
G1 X106.146 Y102.062 E4.67105
G1 X106.233 Y102.628 E4.69962
G0 F3600 X106.295 Y102.818
G0 X105.82 Y102.973
G0 X105.707 Y102.095
G0 X105.805 Y100.857
G0 X106.288 Y99.692
G0 X107.11 Y98.732
G0 X108.185 Y98.077
G0 X109.413 Y97.785
G0 X110.652 Y97.884
G0 X111.817 Y98.367
G0 X112.776 Y99.188
G0 X122.848 Y96.473
G0 X122.549 Y96.073
G1 F1800 X123.054 Y95.694 E4.73112
G1 X123.385 Y95.282 E4.75748
G1 X123.628 Y94.764 E4.78603
G1 X123.736 Y94.247 E4.81238
G1 X123.703 Y93.618 E4.8438
G1 X123.546 Y93.111 E4.87028
G1 X123.25 Y92.623 E4.89876
G1 X122.881 Y92.244 E4.92515
G1 X122.339 Y91.92 E4.95665
G1 X121.837 Y91.771 E4.98278
G1 X121.44 Y91.736 E5.00266
G1 X119.036 Y91.735 E5.1226
G1 X118.425 Y91.821 E5.15338
G1 X117.933 Y92.021 E5.17988
G1 X117.428 Y92.399 E5.21135
G1 X117.096 Y92.811 E5.23774
G1 X116.853 Y93.329 E5.26629
G1 X116.746 Y93.848 E5.29273
G1 X116.778 Y94.476 E5.3241
G1 X116.935 Y94.983 E5.35058
G1 X117.231 Y95.471 E5.37905
G1 X117.6 Y95.849 E5.40541
G1 X118.142 Y96.174 E5.43694
G1 X118.645 Y96.322 E5.4631
G1 X119.041 Y96.358 E5.48293
G1 X121.445 Y96.359 E5.60287
G1 X122.056 Y96.272 E5.63366
G1 X122.549 Y96.073 E5.66018
G0 F3600 X122.709 Y95.953
G0 X123.008 Y96.353
G0 X123.76 Y95.516
G0 X124.177 Y94.281
G0 X123.95 Y92.93
G0 X123.348 Y92.095
G0 X122.301 Y91.27
G0 X122.454 Y90.793
G1 F1800 X122.941 Y90.989 E5.68637
G1 X123.382 Y91.25 E5.71194
G1 X123.787 Y91.583 E5.7381
G1 X124.18 Y92.027 E5.76768
G1 X124.456 Y92.47 E5.79372
G1 X124.66 Y92.947 E5.8196
G1 X124.789 Y93.45 E5.84551
G1 X124.84 Y93.972 E5.87168
G1 X124.843 Y109.155 E6.62916
G1 X124.843 Y109.331 E6.63794
G1 X124.809 Y109.364 E6.6403
G1 X124.633 Y109.364 E6.64909
G1 X75.19 Y109.364 E9.11581
G1 X75.158 Y109.332 E9.11806
G1 X75.157 Y94.047 E9.88064
G1 X75.196 Y93.533 E9.90635
G1 X75.315 Y93.024 E9.93243
G1 X75.511 Y92.537 E9.95862
G1 X75.772 Y92.096 E9.98419
G1 X76.105 Y91.691 E10.01035
G1 X76.549 Y91.298 E10.03993
G1 X76.994 Y91.021 E10.06608
G1 X77.465 Y90.82 E10.09163
G1 X77.974 Y90.689 E10.11785
G1 X78.494 Y90.638 E10.14392
G1 X121.429 Y90.636 E12.28595
G1 X121.946 Y90.674 E12.31182
G1 X122.454 Y90.793 E12.33785
G0 F3600 X122.639 Y90.867
G0 X122.453 Y91.33
G0 X123.193 Y91.849
G0 X123.131 Y91.927
;TYPE:WALL-INNER
G1 F1800 X122.993 Y91.845 E12.34586
G1 X122.605 Y91.613 E12.36841
G1 X122.501 Y91.551 E12.37445
G1 X122.243 Y91.475 E12.38787
G1 X121.912 Y91.376 E12.40511
G1 X121.863 Y91.372 E12.40756
G1 X121.458 Y91.336 E12.42784
G1 X121.414 Y91.336 E12.43004
G1 X119.008 Y91.335 E12.55007
G1 X118.32 Y91.432 E12.58474
G1 X118.307 Y91.437 E12.58543
G1 X117.735 Y91.67 E12.61625
G1 X117.148 Y92.109 E12.65282
G1 X116.754 Y92.598 E12.68415
G1 X116.471 Y93.202 E12.71742
G1 X116.344 Y93.817 E12.74875
G1 X116.381 Y94.546 E12.78517
G1 X116.567 Y95.148 E12.81661
G1 X116.913 Y95.718 E12.84987
G1 X117.35 Y96.165 E12.88106
G1 X117.98 Y96.543 E12.91771
G1 X118.57 Y96.717 E12.9484
G1 X119.023 Y96.758 E12.9711
G1 X121.473 Y96.759 E13.09333
G1 X122.161 Y96.661 E13.128
G1 X122.747 Y96.424 E13.15953
G1 X123.334 Y95.984 E13.19613
G1 X123.727 Y95.495 E13.22743
G1 X124.01 Y94.892 E13.26066
G1 X124.042 Y94.742 E13.26832
G1 X124.138 Y94.278 E13.29195
G1 X124.124 Y94.008 E13.30544
G1 X124.1 Y93.547 E13.32847
G1 X123.985 Y93.173 E13.34799
G1 X123.914 Y92.946 E13.35986
G1 X123.838 Y92.82 E13.3672
G1 X123.597 Y92.424 E13.39033
G1 X123.568 Y92.377 E13.39308
G1 X123.286 Y92.087 E13.41327
G1 X123.131 Y91.927 E13.42438
G0 F3600 X123.193 Y91.849
G0 X121.919 Y91.337
G0 X119.006 Y91.296
G0 X117.716 Y91.636
G0 X107.11 Y98.732
G0 X106.36 Y99.593
G0 X105.746 Y100.843
G0 X105.843 Y100.866
G1 F1800 X105.747 Y101.478 E13.45529
G1 X105.746 Y102.092 E13.48592
G1 X105.843 Y102.721 E13.51767
G1 X106.035 Y103.309 E13.54853
G1 X106.322 Y103.875 E13.58019
G1 X106.685 Y104.375 E13.61102
G1 X107.121 Y104.813 E13.64185
G1 X107.634 Y105.187 E13.67352
G1 X108.184 Y105.468 E13.70434
G1 X108.788 Y105.666 E13.73605
G1 X109.398 Y105.763 E13.76686
G1 X110.015 Y105.764 E13.79765
G1 X110.642 Y105.666 E13.82931
G1 X111.231 Y105.475 E13.8602
G1 X111.796 Y105.187 E13.89184
G1 X112.296 Y104.826 E13.9226
G1 X112.735 Y104.389 E13.95351
G1 X113.109 Y103.876 E13.98518
G1 X113.389 Y103.325 E14.01602
G1 X113.588 Y102.722 E14.0477
G1 X113.684 Y102.11 E14.0786
G1 X113.685 Y101.496 E14.10923
G1 X113.588 Y100.867 E14.14099
G1 X113.396 Y100.279 E14.17185
G1 X113.109 Y99.713 E14.20351
G1 X112.746 Y99.213 E14.23433
G1 X112.31 Y98.775 E14.26517
G1 X111.797 Y98.401 E14.29684
G1 X111.247 Y98.12 E14.32765
G1 X110.643 Y97.922 E14.35936
G1 X110.033 Y97.825 E14.39018
G1 X109.416 Y97.824 E14.42096
G1 X108.789 Y97.922 E14.45262
G1 X108.2 Y98.113 E14.48351
G1 X107.635 Y98.401 E14.51515
G1 X107.135 Y98.762 E14.54592
G1 X106.696 Y99.199 E14.57682
G1 X106.322 Y99.712 E14.6085
G1 X106.042 Y100.263 E14.63933
G1 X105.843 Y100.866 E14.67101
G0 F3600 X105.746 Y100.843
G0 X102.566 Y99.584
G0 X102.467 Y99.572
G1 F1800 X102.506 Y98.625 E14.7183
G1 X102.423 Y97.914 E14.75401
G1 X102.244 Y97.226 E14.78948
G1 X101.973 Y96.569 E14.82493
G1 X101.614 Y95.955 E14.86042
G1 X101.175 Y95.398 E14.8958
G1 X100.664 Y94.905 E14.93123
G1 X100.089 Y94.485 E14.96675
G1 X99.463 Y94.15 E15.00217
G1 X98.8 Y93.903 E15.03747
G1 X98.201 Y93.765 E15.06814
G1 X97.498 Y93.695 E15.10338
G1 X96.789 Y93.721 E15.13878
G1 X96.089 Y93.843 E15.17423
G1 X95.412 Y94.061 E15.20971
G1 X94.773 Y94.368 E15.24508
G1 X94.18 Y94.761 E15.28057
G1 X93.647 Y95.231 E15.31603
G1 X93.186 Y95.768 E15.35134
G1 X92.848 Y96.282 E15.38203
G1 X92.536 Y96.914 E15.41719
G1 X92.315 Y97.59 E15.45267
G1 X92.186 Y98.288 E15.48809
G1 X92.154 Y98.999 E15.52359
G1 X92.22 Y99.705 E15.55897
G1 X92.381 Y100.397 E15.59442
G1 X92.637 Y101.061 E15.62992
G1 X92.98 Y101.681 E15.66527
G1 X93.346 Y102.175 E15.69594
G1 X93.831 Y102.687 E15.73113
G1 X94.386 Y103.132 E15.76662
G1 X94.997 Y103.495 E15.80207
G1 X95.651 Y103.772 E15.83751
G1 X96.335 Y103.956 E15.87285
G1 X97.04 Y104.045 E15.9083
G1 X97.751 Y104.037 E15.94377
G1 X98.452 Y103.931 E15.97914
G1 X99.042 Y103.761 E16.00978
G1 X99.692 Y103.483 E16.04505
G1 X100.302 Y103.117 E16.08054
G1 X100.854 Y102.671 E16.11594
G1 X101.341 Y102.153 E16.15141
G1 X101.752 Y101.574 E16.18684
G1 X102.081 Y100.944 E16.2223
G1 X102.32 Y100.275 E16.25774
G1 X102.467 Y99.572 E16.29357
G0 F3600 X102.566 Y99.584
G0 X102.462 Y97.907
G0 X102.008 Y96.552
G0 X101.204 Y95.372
G0 X100.11 Y94.452
G0 X98.811 Y93.865
G0 X82.712 Y91.849
G0 X82.65 Y91.927
G1 F1800 X82.02 Y91.551 E16.33017
G1 X81.634 Y91.436 E16.35027
G1 X81.43 Y91.376 E16.36088
G1 X80.977 Y91.336 E16.38356
G1 X78.527 Y91.335 E16.50579
G1 X78.088 Y91.397 E16.52791
G1 X77.839 Y91.432 E16.54046
G1 X77.712 Y91.483 E16.54729
G1 X77.294 Y91.653 E16.5698
G1 X77.253 Y91.67 E16.57201
G1 X76.981 Y91.874 E16.58898
G1 X76.666 Y92.109 E16.60858
G1 X76.627 Y92.158 E16.61171
G1 X76.338 Y92.517 E16.6347
G1 X76.273 Y92.598 E16.63988
G1 X76.156 Y92.848 E16.65365
G1 X75.99 Y93.202 E16.67316
G1 X75.897 Y93.653 E16.69613
G1 X75.862 Y93.817 E16.7045
G1 X75.873 Y94.044 E16.71584
G1 X75.9 Y94.547 E16.74097
G1 X75.956 Y94.729 E16.75047
G1 X76.086 Y95.148 E16.77236
G1 X76.432 Y95.718 E16.80562
G1 X76.86 Y96.157 E16.83621
G1 X77.332 Y96.465 E16.86433
G1 X78.016 Y96.705 E16.90049
G1 X78.539 Y96.758 E16.92672
G1 X80.992 Y96.759 E17.0491
G1 X81.68 Y96.661 E17.08377
G1 X82.265 Y96.424 E17.11526
G1 X82.852 Y95.984 E17.15186
G1 X83.246 Y95.495 E17.18319
G1 X83.529 Y94.891 E17.21647
G1 X83.656 Y94.277 E17.24775
G1 X83.619 Y93.548 E17.28417
G1 X83.433 Y92.946 E17.3156
G1 X83.087 Y92.377 E17.34882
G1 X82.65 Y91.927 E17.38012
G0 F3600 X82.712 Y91.849
G0 X81.551 Y91.371
G0 X78.506 Y91.139
G0 X78.498 Y91.04
G1 F1800 X78.513 Y91.038 E17.38087
G1 X78.527 Y91.038 E17.38148
G1 X80.977 Y91.038 E17.47239
G1 X81.43 Y91.038 E17.49036
G1 X81.643 Y91.038 E17.50017
G1 X118.304 Y91.038 E19.3292
G1 X118.319 Y91.038 E19.32994
G1 X119.007 Y91.037 E19.35962
G1 X121.414 Y91.036 E19.44939
G1 X121.479 Y91.04 E19.45195
G1 X121.889 Y91.071 E19.46731
G1 X121.978 Y91.092 E19.47096
G1 X122.331 Y91.175 E19.48471
G1 X122.607 Y91.285 E19.49597
G1 X122.763 Y91.348 E19.50251
G1 X123.151 Y91.578 E19.51989
G1 X123.31 Y91.709 E19.5278
G1 X123.507 Y91.871 E19.53741
G1 X123.784 Y92.184 E19.55308
G1 X123.856 Y92.265 E19.55742
G1 X124.102 Y92.659 E19.57515
G1 X124.176 Y92.833 E19.58243
G1 X124.282 Y93.08 E19.59262
G1 X124.383 Y93.474 E19.60801
G1 X124.394 Y93.517 E19.60993
G1 X124.44 Y93.991 E19.62816
G1 X124.44 Y94.277 E19.63927
G1 X124.44 Y94.751 E19.66004
G1 X124.443 Y108.764 E20.35916
G1 X124.443 Y108.964 E20.36913
G1 X124.243 Y108.964 E20.37559
G1 X75.558 Y108.964 E22.8045
G1 X75.558 Y94.739 E23.51419
G1 X75.558 Y94.548 E23.52303
G1 X75.557 Y94.061 E23.54295
G1 X75.577 Y93.796 E23.55314
G1 X75.593 Y93.59 E23.56106
G1 X75.697 Y93.147 E23.57828
G1 X75.718 Y93.094 E23.58076
G1 X75.87 Y92.715 E23.59632
G1 X76.026 Y92.452 E23.60796
G1 X76.1 Y92.327 E23.61358
G1 X76.393 Y91.971 E23.63095
G1 X76.477 Y91.897 E23.63536
G1 X76.79 Y91.62 E23.65117
G1 X77.1 Y91.427 E23.66509
G1 X77.181 Y91.376 E23.66893
G1 X77.596 Y91.199 E23.68595
G1 X77.767 Y91.155 E23.69273
G1 X78.043 Y91.084 E23.70363
G1 X78.498 Y91.04 E23.72116
G0 F3600 X78.506 Y91.139
G0 X77.234 Y91.636
G0 X76.24 Y92.577
G0 X75.823 Y93.814
G0 X76.05 Y95.164
G0 X80.981 Y100.843
G0 X81.078 Y100.866
G1 F1800 X80.982 Y101.478 E23.75207
G1 X80.981 Y102.092 E23.7827
G1 X81.078 Y102.721 E23.81445
G1 X81.27 Y103.309 E23.84531
G1 X81.557 Y103.875 E23.87697
G1 X81.92 Y104.375 E23.9078
G1 X82.356 Y104.813 E23.93863
G1 X82.869 Y105.187 E23.9703
G1 X83.419 Y105.468 E24.00112
G1 X84.023 Y105.666 E24.03283
G1 X84.633 Y105.763 E24.06364
G1 X85.25 Y105.764 E24.09443
G1 X85.877 Y105.666 E24.12609
G1 X86.466 Y105.475 E24.15698
G1 X87.031 Y105.187 E24.18862
G1 X87.531 Y104.826 E24.21938
G1 X87.97 Y104.389 E24.25029
G1 X88.344 Y103.876 E24.28196
G1 X88.624 Y103.325 E24.3128
G1 X88.823 Y102.722 E24.34448
G1 X88.919 Y102.11 E24.37538
G1 X88.92 Y101.496 E24.40601
G1 X88.823 Y100.867 E24.43777
G1 X88.631 Y100.279 E24.46863
G1 X88.344 Y99.713 E24.50029
G1 X87.981 Y99.213 E24.53111
G1 X87.545 Y98.775 E24.56195
G1 X87.032 Y98.401 E24.59362
G1 X86.482 Y98.12 E24.62443
G1 X85.878 Y97.922 E24.65614
G1 X85.268 Y97.825 E24.68696
G1 X84.651 Y97.824 E24.71774
G1 X84.024 Y97.922 E24.7494
G1 X83.435 Y98.113 E24.78029
G1 X82.87 Y98.401 E24.81193
G1 X82.37 Y98.762 E24.8427
G1 X81.931 Y99.199 E24.8736
G1 X81.557 Y99.712 E24.90528
G1 X81.277 Y100.263 E24.93611
G1 X81.078 Y100.866 E24.96779
G0 F3600 X80.698 Y100.774
;TYPE:SKIN
G1 F1800 X80.592 Y101.447 E25.00178
G1 X80.591 Y102.121 E25.03541
G1 X80.698 Y102.812 E25.07029
G1 X80.909 Y103.459 E25.10425
G1 X81.223 Y104.079 E25.13892
G1 X81.622 Y104.629 E25.17282
