;FLAVOR:Marlin
;TIME:1808
;Filament used: 1.51568m, 0m
;Layer height: 0.15
;MINX:83.999
;MINY:85.6
;MINZ:0.3
;MAXX:116.001
;MAXY:114.4
;MAXZ:9.9
;Generated with Cura_SteamEngine 4.4.1
T0
M140 S40
M105
M190 S40
M104 S200
M105
M109 S200
M82 ;absolute extrusion mode
G28 ;Home
G1 Z15.0 F6000 ;Move the platform down 15mm
;Prime the extruder
G92 E0
G1 F200 E3
G92 E0
G92 E0
G92 E0
G1 F1500 E-6.5
;LAYER_COUNT:65
;LAYER:0
M107
G0 F3600 X84.338 Y85.849 Z0.3
;TYPE:SKIRT
G1 F1500 E0
G1 F1800 X84.574 Y85.695 E0.01406
G1 X84.844 Y85.612 E0.02815
G1 X84.999 Y85.6 E0.03591
G1 X115.001 Y85.6 E1.53271
G1 X115.28 Y85.64 E1.54678
G1 X115.537 Y85.756 E1.56084
G1 X115.752 Y85.939 E1.57493
G1 X115.906 Y86.175 E1.58899
G1 X115.989 Y86.445 E1.60308
G1 X116.001 Y86.6 E1.61084
G1 X116.001 Y113.4 E2.94789
G1 X115.961 Y113.679 E2.96196
G1 X115.845 Y113.936 E2.97602
G1 X115.662 Y114.151 E2.99011
G1 X115.426 Y114.305 E3.00417
G1 X115.156 Y114.388 E3.01826
G1 X115.001 Y114.4 E3.02602
G1 X84.999 Y114.4 E4.52282
G1 X84.72 Y114.36 E4.53688
G1 X84.463 Y114.244 E4.55095
G1 X84.248 Y114.061 E4.56504
G1 X84.094 Y113.825 E4.5791
G1 X84.011 Y113.555 E4.59319
G1 X83.999 Y113.4 E4.60094
G1 X83.999 Y86.6 E5.938
G1 X84.039 Y86.321 E5.95206
G1 X84.155 Y86.064 E5.96613
G1 X84.338 Y85.849 E5.98022
G0 F3600 X84.552 Y86.199
G1 F1800 X84.725 Y86.066 E5.9911
G1 X84.999 Y86 E6.00516
G1 X115.001 Y86 E7.50197
G1 X115.216 Y86.04 E7.51288
G1 X115.402 Y86.153 E7.52374
G1 X115.535 Y86.326 E7.53463
G1 X115.601 Y86.6 E7.54869
G1 X115.601 Y113.4 E8.88574
G1 X115.561 Y113.615 E8.89665
G1 X115.448 Y113.801 E8.90751
G1 X115.275 Y113.934 E8.9184
G1 X115.001 Y114 E8.93246
G1 X84.999 Y114 E10.42927
G1 X84.784 Y113.96 E10.44018
G1 X84.598 Y113.847 E10.45103
G1 X84.465 Y113.674 E10.46192
G1 X84.399 Y113.4 E10.47598
G1 X84.399 Y86.6 E11.81304
G1 X84.439 Y86.385 E11.82395
G1 X84.552 Y86.199 E11.83481
G0 F3600 X84.838 Y86.481
G1 F1800 X84.999 Y86.4 E11.8438
G1 X115.001 Y86.4 E13.34061
G1 X115.12 Y86.439 E13.34685
G1 X115.201 Y86.6 E13.35584
G1 X115.201 Y113.4 E14.6929
G1 X115.162 Y113.519 E14.69915
G1 X115.001 Y113.6 E14.70814
G1 X84.999 Y113.6 E16.20495
G1 X84.88 Y113.561 E16.21119
G1 X84.799 Y113.4 E16.22019
G1 X84.799 Y86.6 E17.55724
G1 X84.838 Y86.481 E17.56349
G1 F1500 E11.06349
;MESH:Whistle-Mountblock-10mm.stl
G0 F3600 X85.613 Y87.214
G0 X88.888 Y95.398
G0 X89.35 Y95.587
;TYPE:WALL-OUTER
G1 F1500 E17.56349
G1 F1800 X89.159 Y96.054 E17.58866
G1 X89.096 Y96.546 E17.61341
G1 X89.163 Y97.037 E17.63813
G1 X89.354 Y97.494 E17.66284
G1 X89.652 Y97.883 E17.68729
G1 X90.046 Y98.185 E17.71206
G1 X90.505 Y98.375 E17.73684
G1 X90.997 Y98.44 E17.7616
G1 X91.489 Y98.375 E17.78636
G1 X91.948 Y98.184 E17.81116
G1 X92.347 Y97.875 E17.83634
G1 X92.647 Y97.48 E17.86109
G1 X92.835 Y97.021 E17.88583
G1 X92.898 Y96.529 E17.91058
G1 X92.831 Y96.037 E17.93535
G1 X92.638 Y95.58 E17.9601
G1 X92.342 Y95.193 E17.98441
G1 X91.948 Y94.891 E18.00918
G1 X91.489 Y94.701 E18.03396
G1 X90.997 Y94.636 E18.05872
G1 X90.505 Y94.701 E18.08348
G1 X90.046 Y94.891 E18.10826
G1 X89.648 Y95.199 E18.13337
G1 X89.35 Y95.587 E18.15778
G0 F3600 X89.275 Y95.772
G0 X88.813 Y95.583
G0 X89.334 Y94.886
G0 X90.391 Y94.273
G0 X91.487 Y94.257
G0 X97.701 Y96.223
G0 X98.162 Y96.03
G1 F1800 X98.357 Y96.493 E18.18284
G1 X98.654 Y96.881 E18.20722
G1 X99.048 Y97.185 E18.23205
G1 X99.507 Y97.374 E18.25681
G1 X99.999 Y97.439 E18.28157
G1 X100.491 Y97.374 E18.30633
G1 X100.95 Y97.185 E18.3311
G1 X101.344 Y96.881 E18.35592
G1 X101.649 Y96.481 E18.38102
G1 X101.837 Y96.021 E18.40581
G1 X101.9 Y95.529 E18.43056
G1 X101.833 Y95.038 E18.45528
G1 X101.642 Y94.581 E18.47999
G1 X101.344 Y94.192 E18.50444
G1 X100.95 Y93.89 E18.52921
G1 X100.491 Y93.7 E18.55399
G1 X99.999 Y93.635 E18.57875
G1 X99.507 Y93.7 E18.60351
G1 X99.048 Y93.89 E18.62829
G1 X98.65 Y94.198 E18.6534
G1 X98.349 Y94.593 E18.67818
G1 X98.161 Y95.053 E18.70297
G1 X98.098 Y95.544 E18.72767
G1 X98.162 Y96.03 E18.75212
G0 F3600 X98.239 Y96.214
G0 X97.778 Y96.407
G0 X98.34 Y97.194
G0 X99.285 Y97.757
G0 X108.395 Y98.857
G0 X108.462 Y98.362
G1 F1800 X108.997 Y98.434 E18.77905
G1 X109.444 Y98.388 E18.80147
G1 X109.908 Y98.21 E18.82627
G1 X110.313 Y97.913 E18.85132
G1 X110.625 Y97.527 E18.87608
G1 X110.825 Y97.079 E18.90056
G1 X110.902 Y96.582 E18.92565
G1 X110.849 Y96.089 E18.95039
G1 X110.669 Y95.626 E18.97517
G1 X110.382 Y95.23 E18.99957
G1 X109.997 Y94.917 E19.02433
G1 X109.541 Y94.715 E19.04921
G1 X109.003 Y94.643 E19.07629
G1 X108.559 Y94.689 E19.09856
G1 X108.095 Y94.866 E19.12334
G1 X107.687 Y95.164 E19.14854
G1 X107.378 Y95.552 E19.17329
G1 X107.177 Y96.005 E19.19801
G1 X107.101 Y96.495 E19.22275
G1 X107.155 Y96.989 E19.24754
G1 X107.335 Y97.451 E19.27228
G1 X107.62 Y97.846 E19.29658
G1 X108.006 Y98.159 E19.32138
G1 X108.462 Y98.362 E19.34628
G0 F3600 X108.66 Y98.388
G0 X108.593 Y98.884
G0 X102.659 Y104.086
G0 X102.18 Y105.204
G0 X102.294 Y106.481
G0 X102.73 Y106.236
G1 F1800 X102.978 Y106.676 E19.37148
G1 X103.317 Y107.027 E19.39582
G1 X103.743 Y107.282 E19.42059
G1 X104.22 Y107.419 E19.44535
G1 X104.716 Y107.426 E19.4701
G1 X105.198 Y107.307 E19.49487
G1 X105.633 Y107.065 E19.5197
G1 X105.992 Y106.713 E19.54479
G1 X106.246 Y106.288 E19.56949
G1 X106.381 Y105.816 E19.59398
G1 X106.386 Y105.313 E19.61908
G1 X106.265 Y104.832 E19.64382
G1 X106.021 Y104.399 E19.66862
G1 X105.676 Y104.045 E19.69328
G1 X105.253 Y103.792 E19.71787
G1 X104.779 Y103.657 E19.74246
G1 X104.283 Y103.648 E19.76721
G1 X103.801 Y103.768 E19.79199
G1 X103.367 Y104.01 E19.81678
G1 X103.007 Y104.36 E19.84183
G1 X102.753 Y104.788 E19.86666
G1 X102.618 Y105.266 E19.89144
G1 X102.613 Y105.76 E19.91609
G1 X102.73 Y106.236 E19.94054
G0 F3600 X102.828 Y106.41
G0 X102.392 Y106.655
G0 X96.783 Y107.562
G0 X96.562 Y107.115
G1 F1800 X96.938 Y106.78 E19.96567
G1 X97.211 Y106.366 E19.99041
G1 X97.366 Y105.894 E20.01519
G1 X97.395 Y105.399 E20.03993
G1 X97.298 Y104.92 E20.06431
G1 X97.071 Y104.469 E20.0895
G1 X96.749 Y104.103 E20.11382
G1 X96.334 Y103.829 E20.13863
G1 X95.855 Y103.67 E20.16381
G1 X95.369 Y103.64 E20.1881
G1 X94.876 Y103.741 E20.21321
G1 X94.432 Y103.964 E20.238
G1 X94.066 Y104.289 E20.26242
G1 X93.788 Y104.709 E20.28755
G1 X93.633 Y105.18 E20.31229
G1 X93.603 Y105.675 E20.33703
G1 X93.701 Y106.155 E20.36147
G1 X93.926 Y106.605 E20.38657
G1 X94.251 Y106.971 E20.41099
G1 X94.664 Y107.246 E20.43574
G1 X95.134 Y107.404 E20.46048
G1 X95.63 Y107.434 E20.48527
G1 X96.116 Y107.336 E20.51001
G1 X96.562 Y107.115 E20.53484
G0 F3600 X96.711 Y106.982
G0 X97.042 Y107.355
G0 X85.669 Y112.73
G0 X85.199 Y113.2
G1 F1800 X85.199 Y86.8 E21.85194
G1 X114.801 Y86.8 E23.32879
G1 X114.801 Y113.2 E24.64589
G1 X85.199 Y113.2 E26.12274
G0 F3600 X85.199 Y113
G0 X85.599 Y112.8
;TYPE:WALL-INNER
G1 F1800 X85.599 Y87.2 E27.39993
G1 X114.401 Y87.2 E28.83687
G1 X114.401 Y112.8 E30.11406
G1 X85.599 Y112.8 E31.55099
G0 F3600 X85.669 Y112.73
G0 X93.336 Y104.49
G0 X93.425 Y104.533
G1 F1800 X93.237 Y105.104 E31.58099
G1 X93.201 Y105.703 E31.61092
G1 X93.32 Y106.287 E31.64066
G1 X93.592 Y106.831 E31.671
G1 X93.986 Y107.275 E31.70062
G1 X94.486 Y107.608 E31.73059
G1 X95.057 Y107.8 E31.76064
G1 X95.658 Y107.836 E31.79068
G1 X96.247 Y107.718 E31.82065
G1 X96.788 Y107.449 E31.85079
G1 X97.243 Y107.044 E31.88118
G1 X97.574 Y106.542 E31.91118
G1 X97.762 Y105.969 E31.94127
G1 X97.797 Y105.371 E31.97116
G1 X97.679 Y104.788 E32.00083
G1 X97.405 Y104.243 E32.03126
G1 X97.014 Y103.799 E32.06078
G1 X96.51 Y103.466 E32.09092
G1 X95.932 Y103.274 E32.1213
G1 X95.341 Y103.237 E32.15085
G1 X94.744 Y103.36 E32.18126
G1 X94.206 Y103.63 E32.21129
G1 X93.761 Y104.025 E32.24097
G1 X93.425 Y104.533 E32.27136
G0 F3600 X93.336 Y104.49
G0 X94.184 Y103.597
G0 X95.339 Y103.198
G0 X96.415 Y103.393
G0 X102.263 Y106.421
G0 X102.355 Y106.385
G1 F1800 X102.655 Y106.917 E32.30183
G1 X103.066 Y107.343 E32.33136
G1 X103.582 Y107.652 E32.36137
G1 X104.161 Y107.818 E32.39142
G1 X104.762 Y107.827 E32.42141
G1 X105.346 Y107.683 E32.45141
G1 X105.875 Y107.388 E32.48163
G1 X106.309 Y106.962 E32.51197
G1 X106.616 Y106.448 E32.54184
G1 X106.78 Y105.874 E32.57163
G1 X106.786 Y105.265 E32.60201
G1 X106.64 Y104.682 E32.63199
G1 X106.344 Y104.157 E32.66206
G1 X105.926 Y103.728 E32.69195
G1 X105.413 Y103.422 E32.72175
G1 X104.838 Y103.258 E32.75158
G1 X104.238 Y103.247 E32.78152
G1 X103.653 Y103.393 E32.8116
G1 X103.126 Y103.686 E32.84168
G1 X102.69 Y104.11 E32.87202
G1 X102.382 Y104.629 E32.90213
G1 X102.219 Y105.209 E32.93219
G1 X102.213 Y105.806 E32.96197
G1 X102.355 Y106.385 E32.99172
G0 F3600 X102.263 Y106.421
G0 X102.18 Y105.204
G0 X102.627 Y104.139
G0 X108.325 Y98.847
G0 X108.352 Y98.751
G1 F1800 X108.991 Y98.837 E33.02388
G1 X109.538 Y98.78 E33.05132
G1 X110.101 Y98.564 E33.08141
G1 X110.591 Y98.205 E33.11171
G1 X110.969 Y97.738 E33.14169
G1 X111.212 Y97.193 E33.17146
G1 X111.305 Y96.591 E33.20185
G1 X111.241 Y95.994 E33.2318
G1 X111.023 Y95.433 E33.26183
G1 X110.675 Y94.953 E33.29141
G1 X110.208 Y94.573 E33.32145
G1 X109.651 Y94.326 E33.35184
G1 X109.009 Y94.24 E33.38416
G1 X108.466 Y94.297 E33.4114
G1 X107.902 Y94.511 E33.44149
G1 X107.408 Y94.873 E33.47205
G1 X107.033 Y95.343 E33.50205
G1 X106.79 Y95.891 E33.53195
G1 X106.698 Y96.486 E33.56199
G1 X106.763 Y97.085 E33.59205
G1 X106.981 Y97.644 E33.62199
G1 X107.327 Y98.123 E33.65146
G1 X107.795 Y98.503 E33.68154
G1 X108.352 Y98.751 E33.71196
G0 F3600 X108.325 Y98.847
G0 X99.393 Y97.802
G0 X98.34 Y97.194
G0 X97.676 Y96.162
G0 X97.772 Y96.136
G1 F1800 X98.008 Y96.695 E33.74223
G1 X98.368 Y97.166 E33.77181
G1 X98.846 Y97.534 E33.8019
G1 X99.403 Y97.764 E33.83197
G1 X99.999 Y97.842 E33.86196
G1 X100.595 Y97.764 E33.89195
G1 X101.152 Y97.534 E33.92201
G1 X101.63 Y97.165 E33.95214
G1 X101.999 Y96.681 E33.9825
G1 X102.227 Y96.124 E34.01253
G1 X102.303 Y95.527 E34.04255
G1 X102.222 Y94.932 E34.07251
G1 X101.991 Y94.379 E34.10241
G1 X101.629 Y93.907 E34.13209
G1 X101.152 Y93.541 E34.16208
G1 X100.595 Y93.31 E34.19217
G1 X99.999 Y93.232 E34.22215
G1 X99.403 Y93.31 E34.25214
G1 X98.846 Y93.541 E34.28223
G1 X98.364 Y93.914 E34.31263
G1 X97.999 Y94.393 E34.34268
G1 X97.771 Y94.95 E34.3727
G1 X97.695 Y95.545 E34.40263
G1 X97.772 Y96.136 E34.43236
G0 F3600 X97.676 Y96.162
G0 X91.603 Y94.273
G0 X90.391 Y94.273
G0 X89.547 Y94.722
G0 X88.914 Y95.337
G0 X89 Y95.386
G1 F1800 X88.769 Y95.951 E34.46282
G1 X88.693 Y96.548 E34.49284
G1 X88.774 Y97.143 E34.5228
G1 X89.005 Y97.696 E34.5527
G1 X89.367 Y98.168 E34.58238
G1 X89.844 Y98.534 E34.61237
G1 X90.401 Y98.765 E34.64246
G1 X90.997 Y98.843 E34.67244
G1 X91.594 Y98.765 E34.70248
G1 X92.151 Y98.533 E34.73259
G1 X92.634 Y98.159 E34.76306
G1 X92.997 Y97.68 E34.79305
G1 X93.225 Y97.124 E34.82303
G1 X93.301 Y96.527 E34.85305
G1 X93.22 Y95.93 E34.88311
G1 X92.987 Y95.377 E34.91305
G1 X92.627 Y94.908 E34.94254
G1 X92.15 Y94.542 E34.97254
G1 X91.593 Y94.311 E35.00262
G1 X90.997 Y94.233 E35.03261
G1 X90.401 Y94.311 E35.0626
G1 X89.844 Y94.542 E35.09268
G1 X89.362 Y94.914 E35.12306
G1 X89 Y95.386 E35.15274
G0 F3600 X88.659 Y95.191
;TYPE:SKIN
G1 F1800 X88.389 Y95.851 E35.18831
G1 X88.299 Y96.55 E35.22347
G1 X88.394 Y97.246 E35.25852
G1 X88.664 Y97.893 E35.2935
G1 X89.088 Y98.447 E35.3283
G1 X89.647 Y98.875 E35.36343
G1 X90.299 Y99.145 E35.39863
G1 X90.997 Y99.237 E35.43376
G1 X91.696 Y99.145 E35.46893
G1 X92.348 Y98.873 E35.50418
G1 X92.913 Y98.436 E35.53981
G1 X93.338 Y97.875 E35.57493
G1 X93.605 Y97.224 E35.61003
G1 X93.695 Y96.525 E35.64519
G1 X93.6 Y95.826 E35.68038
G1 X93.327 Y95.18 E35.71537
G1 X92.906 Y94.63 E35.74993
G1 X92.347 Y94.201 E35.78508
G1 X91.695 Y93.931 E35.82029
G1 X90.997 Y93.839 E35.85542
G1 X90.299 Y93.931 E35.89054
G1 X89.647 Y94.201 E35.92575
G1 X89.083 Y94.637 E35.96131
G1 X88.659 Y95.191 E35.99612
G0 F3600 X85.989 Y87.59
G1 F1800 X114.011 Y87.59 E37.39414
G1 X114.011 Y112.41 E38.63242
G1 X85.989 Y112.41 E40.03044
G1 X85.989 Y87.59 E41.26871
G0 F3600 X97.301 Y95.545
G1 F1800 X97.392 Y96.239 E41.30363
G1 X97.668 Y96.892 E41.339
G1 X98.089 Y97.443 E41.3736
G1 X98.649 Y97.875 E41.40888
G1 X99.302 Y98.144 E41.44412
G1 X99.999 Y98.236 E41.47919
G1 X100.696 Y98.144 E41.51427
G1 X101.349 Y97.875 E41.5495
G1 X101.909 Y97.442 E41.58482
G1 X102.34 Y96.876 E41.62031
G1 X102.607 Y96.224 E41.65546
G1 X102.697 Y95.525 E41.69062
G1 X102.602 Y94.829 E41.72567
G1 X102.332 Y94.182 E41.76065
G1 X101.908 Y93.628 E41.79545
G1 X101.349 Y93.2 E41.83058
G1 X100.697 Y92.93 E41.86578
G1 X99.999 Y92.838 E41.90091
G1 X99.301 Y92.93 E41.93603
G1 X98.649 Y93.2 E41.97124
G1 X98.085 Y93.637 E42.00683
G1 X97.658 Y94.198 E42.04201
G1 X97.391 Y94.85 E42.07716
G1 X97.301 Y95.545 E42.11212
G0 F3600 X93.985 Y103.304
G1 F1800 X93.464 Y103.767 E42.1469
G1 X93.07 Y104.361 E42.18246
G1 X92.851 Y105.03 E42.21758
G1 X92.809 Y105.73 E42.25256
G1 X92.948 Y106.416 E42.28748
G1 X93.266 Y107.051 E42.32291
G1 X93.728 Y107.571 E42.35762
G1 X94.313 Y107.961 E42.39269
G1 X94.981 Y108.186 E42.42786
G1 X95.685 Y108.228 E42.46304
G1 X96.374 Y108.09 E42.4981
G1 X97.008 Y107.775 E42.53342
G1 X97.541 Y107.301 E42.56901
G1 X97.929 Y106.713 E42.60415
G1 X98.148 Y106.043 E42.63932
G1 X98.189 Y105.344 E42.67425
G1 X98.051 Y104.659 E42.70911
G1 X97.731 Y104.023 E42.74463
G1 X97.272 Y103.502 E42.77928
G1 X96.682 Y103.113 E42.81453
G1 X96.007 Y102.888 E42.85003
G1 X95.314 Y102.845 E42.88467
G1 X94.615 Y102.988 E42.92027
G1 X93.985 Y103.304 E42.95543
G0 F3600 X95.339 Y103.198
G0 X102.381 Y103.866
G1 F1800 X102.021 Y104.474 E42.99068
G1 X101.829 Y105.153 E43.02588
G1 X101.823 Y105.851 E43.06071
G1 X101.989 Y106.53 E43.09558
G1 X102.339 Y107.151 E43.13115
G1 X102.821 Y107.651 E43.16579
G1 X103.426 Y108.013 E43.20097
G1 X104.103 Y108.208 E43.23612
G1 X104.807 Y108.217 E43.27124
G1 X105.49 Y108.049 E43.30633
G1 X106.111 Y107.703 E43.3418
G1 X106.618 Y107.205 E43.37726
G1 X106.977 Y106.604 E43.41218
G1 X107.17 Y105.931 E43.44711
G1 X107.176 Y105.218 E43.48268
G1 X107.005 Y104.536 E43.51776
G1 X106.658 Y103.921 E43.55299
G1 X106.17 Y103.42 E43.58788
G1 X105.569 Y103.061 E43.62281
G1 X104.896 Y102.869 E43.65773
G1 X104.193 Y102.857 E43.6928
G1 X103.509 Y103.027 E43.72797
G1 X102.892 Y103.37 E43.76319
G1 X102.381 Y103.866 E43.79872
G0 F3600 X106.304 Y96.477
G1 F1800 X106.381 Y97.179 E43.83395
G1 X106.636 Y97.832 E43.86892
G1 X107.041 Y98.394 E43.90348
G1 X107.589 Y98.838 E43.93867
G1 X108.245 Y99.13 E43.97449
G1 X108.985 Y99.229 E44.01174
G1 X109.63 Y99.162 E44.04409
G1 X110.29 Y98.909 E44.07936
G1 X110.862 Y98.49 E44.11473
G1 X111.304 Y97.943 E44.14982
G1 X111.59 Y97.304 E44.18474
G1 X111.699 Y96.6 E44.22029
G1 X111.623 Y95.901 E44.25536
G1 X111.368 Y95.245 E44.29048
G1 X110.961 Y94.682 E44.32514
G1 X110.414 Y94.238 E44.36029
G1 X109.758 Y93.947 E44.39609
G1 X109.015 Y93.848 E44.43349
G1 X108.375 Y93.915 E44.46559
G1 X107.715 Y94.165 E44.5008
G1 X107.135 Y94.589 E44.53664
G1 X106.697 Y95.139 E44.57172
G1 X106.412 Y95.78 E44.60672
G1 X106.304 Y96.477 E44.64191
G0 F3600 X106.999 Y95.323
G0 X113.83 Y88.374
G1 F1800 X113.226 Y87.77 E44.68452
G0 F3600 X112.66 Y87.77
G1 F1800 X113.83 Y88.94 E44.76707
G0 F3600 X113.83 Y89.506
G1 F1800 X112.094 Y87.77 E44.88956
G0 F3600 X111.529 Y87.77
G1 F1800 X113.83 Y90.071 E45.05191
G0 F3600 X113.83 Y90.637
G1 F1800 X110.963 Y87.77 E45.25419
G0 F3600 X110.397 Y87.77
G1 F1800 X113.83 Y91.203 E45.4964
G0 F3600 X113.83 Y91.769
G1 F1800 X109.832 Y87.77 E45.77852
G0 F3600 X109.266 Y87.77
G1 F1800 X113.83 Y92.334 E46.10054
G0 F3600 X113.83 Y92.9
G1 F1800 X108.7 Y87.77 E46.46248
G0 F3600 X108.135 Y87.77
G1 F1800 X113.83 Y93.466 E46.86433
G0 F3600 X113.83 Y94.031
G1 F1800 X107.569 Y87.77 E47.30608
G0 F3600 X107.003 Y87.77
G1 F1800 X113.83 Y94.597 E47.78776
G0 F3600 X113.83 Y95.163
G1 F1800 X106.437 Y87.77 E48.30938
G0 F3600 X105.872 Y87.77
G1 F1800 X113.83 Y95.728 E48.87086
G0 F3600 X113.83 Y96.294
G1 F1800 X105.306 Y87.77 E49.47227
G0 F3600 X104.74 Y87.77
G1 F1800 X113.83 Y96.86 E50.11362
G0 F3600 X113.83 Y97.425
G1 F1800 X111.43 Y95.025 E50.28295
G1 X111.36 Y94.955
G0 F3600 X111.811 Y95.972
G1 F1800 X113.83 Y97.991 E50.42541
G0 F3600 X113.83 Y98.557
G1 F1800 X111.879 Y96.606 E50.56306
G0 F3600 X111.803 Y97.095
