;FLAVOR:Marlin
;TIME:6714
;Filament used: 5.29825m, 0m
;Layer height: 0.15
;MINX:78.834
;MINY:57.935
;MINZ:0.3
;MAXX:120.302
;MAXY:142.23
;MAXZ:30
;Generated with Cura_SteamEngine 4.4.1
T0
M140 S40
M105
M190 S40
M104 S200
M105
M109 S200
M82 ;absolute extrusion mode
G28 ;Home
G1 Z15.0 F6000 ;Move the platform down 15mm
;Prime the extruder
G92 E0
G1 F200 E3
G92 E0
G92 E0
G92 E0
G1 F1500 E-6.5
;LAYER_COUNT:199
;LAYER:0
M107
G0 F3600 X86.375 Y77.181 Z0.3
;TYPE:SKIRT
G1 F1500 E0
G1 F1800 X85.221 Y78.684 E0.09454
G1 X84.501 Y80.424 E0.18849
G1 X84.253 Y82.303 E0.28304
G1 X84.501 Y84.183 E0.37765
G1 X85.221 Y85.922 E0.47155
G1 X86.375 Y87.426 E0.56613
G1 X87.868 Y88.571 E0.66
G1 X89.61 Y89.295 E0.75411
G1 X91.069 Y89.491 E0.82756
G1 X91.276 Y89.559 E0.83843
G1 X91.446 Y89.697 E0.84935
G1 X91.5 Y89.79 E0.85471
G1 X91.551 Y89.705 E0.85966
G1 X91.724 Y89.572 E0.87055
G1 X91.913 Y89.512 E0.88044
G1 X93.361 Y89.304 E0.95342
G1 X95.112 Y88.581 E1.04793
G1 X96.61 Y87.434 E1.14206
G1 X97.767 Y85.93 E1.23673
G1 X98.489 Y84.191 E1.33067
G1 X98.741 Y82.312 E1.42525
G1 X98.496 Y80.438 E1.51954
G1 X97.776 Y78.69 E1.61386
G1 X96.626 Y77.189 E1.7082
G1 X95.12 Y76.029 E1.80304
G1 X93.376 Y75.307 E1.89721
G1 X91.498 Y75.058 E1.99172
G1 X89.619 Y75.307 E2.08628
G1 X87.876 Y76.029 E2.18041
G1 X86.375 Y77.181 E2.2748
G0 F3600 X86.09 Y76.896
G1 F1800 X84.872 Y78.482 E2.37457
G1 X84.11 Y80.323 E2.47398
G1 X83.849 Y82.303 E2.57361
G1 X84.11 Y84.284 E2.6733
G1 X84.872 Y86.124 E2.77266
G1 X86.09 Y87.711 E2.87246
G1 X87.666 Y88.92 E2.97156
G1 X89.509 Y89.686 E3.07114
G1 X91.016 Y89.888 E3.14699
G1 X91.128 Y89.942 E3.1532
G1 X91.189 Y90.085 E3.16095
G1 X91.198 Y93.285 E3.3206
G1 X91.159 Y93.404 E3.32685
G1 X90.999 Y93.486 E3.33582
G1 X88.208 Y93.502 E3.47506
G1 X88.198 Y93.848 E3.49233
G1 X88.197 Y95.603 E3.57989
G1 X95.498 Y95.603 E3.94414
G1 X95.617 Y95.642 E3.95039
G1 X95.698 Y95.803 E3.95938
G1 X95.698 Y100.803 E4.20883
G1 X95.659 Y100.922 E4.21508
G1 X95.498 Y101.003 E4.22407
G1 X88.198 Y101.003 E4.58827
G1 X88.198 Y104.692 E4.77231
G1 X95.498 Y104.692 E5.13651
G1 X95.617 Y104.731 E5.14276
G1 X95.698 Y104.892 E5.15175
G1 X95.698 Y106.315 E5.22274
G1 X95.659 Y106.434 E5.22899
G1 X95.498 Y106.515 E5.23798
G1 X88.198 Y106.515 E5.60218
G1 X88.198 Y117.103 E6.13042
G1 X90.998 Y117.103 E6.27011
G1 X91.117 Y117.142 E6.27636
G1 X91.198 Y117.303 E6.28535
G1 X91.198 Y119.525 E6.39621
G1 X91.159 Y119.644 E6.40245
G1 X91.013 Y119.724 E6.41076
G1 X90.006 Y119.801 E6.46115
G1 X88.118 Y120.443 E6.56064
G1 X86.454 Y121.554 E6.66046
G1 X85.138 Y123.053 E6.75997
G1 X84.257 Y124.84 E6.85937
G1 X83.867 Y126.803 E6.95922
G1 X83.997 Y128.798 E7.05896
G1 X84.636 Y130.682 E7.15822
G1 X85.747 Y132.347 E7.25808
G1 X87.238 Y133.654 E7.357
G1 X89.027 Y134.539 E7.45658
G1 X90.985 Y134.932 E7.55621
G1 X92.981 Y134.806 E7.65599
G1 X94.865 Y134.169 E7.75521
G1 X96.535 Y133.057 E7.85531
G1 X97.848 Y131.564 E7.9545
G1 X98.733 Y129.774 E8.05412
G1 X99.126 Y127.815 E8.1538
G1 X99 Y125.82 E8.25353
G1 X98.364 Y123.934 E8.35283
G1 X97.255 Y122.269 E8.45264
G1 X95.748 Y120.944 E8.55275
G1 X93.959 Y120.062 E8.65226
G1 X91.973 Y119.665 E8.7533
G1 X91.864 Y119.604 E8.75953
G1 X91.812 Y119.47 E8.76671
G1 X91.798 Y117.303 E8.87482
G1 X91.836 Y117.184 E8.88105
G1 X91.938 Y117.111 E8.88731
G1 X92.047 Y117.108 E8.89275
G1 X93.19 Y117.399 E8.95159
G1 X93.212 Y117.406 E8.95275
G1 X94.319 Y117.824 E9.01178
G1 X94.339 Y117.833 E9.01287
G1 X95.388 Y118.37 E9.07167
G1 X95.407 Y118.381 E9.07276
G1 X96.394 Y119.034 E9.13181
G1 X96.412 Y119.048 E9.13294
G1 X97.316 Y119.804 E9.19174
G1 X97.333 Y119.819 E9.19287
G1 X98.146 Y120.674 E9.25173
G1 X98.16 Y120.691 E9.25283
G1 X98.875 Y121.634 E9.31187
G1 X98.888 Y121.653 E9.31302
G1 X99.491 Y122.666 E9.37183
G1 X99.501 Y122.686 E9.37295
G1 X99.986 Y123.763 E9.43188
G1 X99.994 Y123.784 E9.433
G1 X100.355 Y124.908 E9.4919
G1 X100.361 Y124.929 E9.49299
G1 X100.596 Y126.086 E9.55189
G1 X100.599 Y126.109 E9.55305
G1 X100.685 Y127.103 E9.60282
G1 X100.907 Y127.103 E9.6139
G1 X101.026 Y127.142 E9.62014
G1 X101.107 Y127.303 E9.62914
G1 X101.108 Y137.321 E10.12894
G1 X101.069 Y137.44 E10.13518
G1 X100.955 Y137.515 E10.14199
G1 X84.045 Y141.598 E11.00988
G1 X83.92 Y141.588 E11.01614
G1 X83.826 Y141.506 E11.02236
G1 X83.798 Y141.404 E11.02764
G1 X83.798 Y136.852 E11.25474
G1 X83.777 Y136.366 E11.27901
G1 X79.307 Y121.987 E12.03024
G1 X79.298 Y121.928 E12.03322
G1 X79.299 Y69.959 E14.62596
G1 X79.299 Y69.785 E14.63464
G1 X79.338 Y69.666 E14.64089
G1 X79.499 Y69.585 E14.64988
G1 X81.495 Y69.586 E14.74946
G1 X81.614 Y69.625 E14.75571
G1 X81.695 Y69.786 E14.7647
G1 X81.694 Y71.902 E14.87027
G1 X98.307 Y71.903 E15.6991
G1 X98.308 Y69.961 E15.79598
G1 X98.308 Y69.96 E15.79603
G1 X98.309 Y69.785 E15.80476
G1 X98.349 Y69.666 E15.81103
G1 X98.509 Y69.586 E15.81995
G1 X100.473 Y69.588 E15.91794
G1 X100.479 Y69.588 E15.91824
G1 X100.51 Y69.589 E15.91978
G1 X100.628 Y69.632 E15.92605
G1 X100.704 Y69.789 E15.93475
G1 X100.702 Y76.766 E16.28283
G1 X107.082 Y76.782 E16.60113
G1 X107.219 Y76.783 E16.60797
G1 X107.277 Y76.792 E16.6109
G1 X108.303 Y77.108 E16.66446
G1 X108.353 Y77.131 E16.6672
G1 X109.274 Y77.73 E16.72202
G1 X109.316 Y77.767 E16.72481
G1 X110.047 Y78.614 E16.78063
G1 X110.078 Y78.663 E16.78352
G1 X110.529 Y79.661 E16.83816
G1 X110.545 Y79.715 E16.84097
G1 X110.7 Y80.805 E16.8959
G1 X110.7 Y80.861 E16.89869
G1 X110.545 Y81.949 E16.95352
G1 X110.529 Y82.003 E16.95633
G1 X110.078 Y83.002 E17.01101
G1 X110.048 Y83.05 E17.01384
G1 X109.337 Y83.884 E17.06851
G1 X109.295 Y83.921 E17.0713
G1 X108.396 Y84.512 E17.12498
G1 X108.346 Y84.536 E17.12775
G1 X107.3 Y84.865 E17.18245
G1 X107.241 Y84.874 E17.18543
G1 X100.702 Y84.899 E17.51166
G1 X100.702 Y88.233 E17.678
G1 X100.661 Y88.962 E17.71443
G1 X100.657 Y88.99 E17.71584
G1 X100.529 Y89.634 E17.74859
G1 X100.523 Y89.659 E17.74988
G1 X100.315 Y90.276 E17.78236
G1 X100.304 Y90.301 E17.78372
G1 X100.013 Y90.887 E17.81637
G1 X100.001 Y90.909 E17.81762
G1 X99.638 Y91.455 E17.85033
G1 X99.622 Y91.476 E17.85164
G1 X99.193 Y91.967 E17.88417
G1 X99.174 Y91.985 E17.88548
G1 X98.679 Y92.419 E17.91832
G1 X98.658 Y92.435 E17.91964
G1 X98.112 Y92.8 E17.95241
G1 X98.09 Y92.813 E17.95368
G1 X97.504 Y93.103 E17.9863
G1 X97.479 Y93.114 E17.98766
G1 X96.861 Y93.322 E18.0202
G1 X96.836 Y93.328 E18.02148
G1 X96.193 Y93.457 E18.0542
G1 X96.167 Y93.461 E18.05551
G1 X95.515 Y93.503 E18.0881
G1 X91.998 Y93.503 E18.26357
G1 X91.879 Y93.464 E18.26982
G1 X91.798 Y93.303 E18.27881
G1 X91.798 Y90.106 E18.43831
G1 X91.837 Y89.987 E18.44455
G1 X91.97 Y89.908 E18.45227
G1 X93.469 Y89.693 E18.52782
G1 X95.31 Y88.933 E18.62719
G1 X96.896 Y87.718 E18.72687
G1 X98.115 Y86.134 E18.82658
G1 X98.88 Y84.292 E18.92609
G1 X99.145 Y82.313 E19.02571
G1 X98.887 Y80.334 E19.12527
G1 X98.128 Y78.492 E19.22467
G1 X96.91 Y76.902 E19.32459
G1 X95.324 Y75.681 E19.42445
G1 X93.476 Y74.916 E19.52424
G1 X91.498 Y74.654 E19.62378
G1 X89.519 Y74.916 E19.72337
G1 X87.675 Y75.68 E19.82296
G1 X86.09 Y76.896 E19.92262
G1 F1500 E13.42262
G0 F3600 X86.421 Y77.227
G0 X82.147 Y71.449
G0 X82.094 Y71.502
G1 F1500 E19.92262
G1 F1800 X97.907 Y71.503 E20.71154
G1 X97.908 Y69.961 E20.78847
G1 X97.908 Y69.958 E20.78862
G1 X97.909 Y69.783 E20.79735
G1 X97.95 Y69.568 E20.80827
G1 X98.065 Y69.383 E20.81913
G1 X98.238 Y69.251 E20.82999
G1 X98.51 Y69.186 E20.84394
G1 X100.474 Y69.188 E20.94193
G1 X100.492 Y69.188 E20.94283
G1 X100.523 Y69.189 E20.94437
G1 X100.736 Y69.236 E20.95525
G1 X100.919 Y69.356 E20.96617
G1 X101.046 Y69.533 E20.97704
G1 X101.104 Y69.789 E20.99014
G1 X101.102 Y76.367 E21.31831
G1 X107.083 Y76.382 E21.61671
G1 X107.085 Y76.382 E21.61681
G1 X107.222 Y76.383 E21.62364
G1 X107.395 Y76.41 E21.63238
G1 X108.421 Y76.726 E21.68594
G1 X108.571 Y76.796 E21.6942
G1 X109.492 Y77.395 E21.74901
G1 X109.619 Y77.506 E21.75742
G1 X110.35 Y78.353 E21.81324
G1 X110.443 Y78.498 E21.82184
G1 X110.894 Y79.496 E21.87648
G1 X110.941 Y79.659 E21.88494
G1 X111.096 Y80.749 E21.93987
G1 X111.096 Y80.918 E21.9483
G1 X110.941 Y82.006 E22.00313
G1 X110.894 Y82.168 E22.01154
G1 X110.443 Y83.167 E22.06623
G1 X110.353 Y83.309 E22.07461
G1 X109.642 Y84.143 E22.12929
G1 X109.515 Y84.255 E22.13774
G1 X108.616 Y84.846 E22.19141
G1 X108.466 Y84.917 E22.19969
G1 X107.42 Y85.246 E22.2544
G1 X107.242 Y85.274 E22.26339
G1 X101.102 Y85.297 E22.56972
G1 X101.102 Y88.222 E22.71564
G1 X101.101 Y88.256 E22.71734
G1 X101.06 Y88.985 E22.75377
G1 X101.049 Y89.068 E22.75795
G1 X100.921 Y89.712 E22.7907
G1 X100.902 Y89.787 E22.79456
G1 X100.694 Y90.404 E22.82705
G1 X100.662 Y90.479 E22.83112
G1 X100.371 Y91.065 E22.86376
G1 X100.334 Y91.13 E22.86749
G1 X99.971 Y91.676 E22.9002
G1 X99.923 Y91.739 E22.90415
G1 X99.494 Y92.23 E22.93668
G1 X99.438 Y92.286 E22.94063
G1 X98.943 Y92.72 E22.97348
G1 X98.88 Y92.768 E22.97743
G1 X98.334 Y93.133 E23.01019
G1 X98.267 Y93.172 E23.01406
G1 X97.681 Y93.462 E23.04668
G1 X97.606 Y93.493 E23.05073
G1 X96.988 Y93.701 E23.08326
G1 X96.915 Y93.72 E23.08702
G1 X96.272 Y93.849 E23.11974
G1 X96.193 Y93.86 E23.12372
G1 X95.541 Y93.902 E23.15632
G1 X95.502 Y93.903 E23.15826
G1 X91.998 Y93.903 E23.33308
G1 X91.783 Y93.863 E23.34399
G1 X91.597 Y93.75 E23.35485
G1 X91.491 Y93.612 E23.36353
G1 X91.446 Y93.685 E23.36781
G1 X91.273 Y93.819 E23.37873
G1 X91.001 Y93.886 E23.3927
G1 X88.598 Y93.9 E23.51259
G1 X88.597 Y95.203 E23.5776
G1 X95.498 Y95.203 E23.92189
G1 X95.713 Y95.243 E23.9328
G1 X95.899 Y95.356 E23.94366
G1 X96.032 Y95.529 E23.95454
G1 X96.098 Y95.803 E23.9686
G1 X96.098 Y100.803 E24.21806
G1 X96.058 Y101.018 E24.22897
G1 X95.945 Y101.204 E24.23982
G1 X95.772 Y101.337 E24.25071
G1 X95.498 Y101.403 E24.26477
G1 X88.598 Y101.403 E24.60901
G1 X88.598 Y104.292 E24.75315
G1 X95.498 Y104.292 E25.09739
G1 X95.713 Y104.332 E25.1083
G1 X95.899 Y104.445 E25.11916
G1 X96.032 Y104.618 E25.13004
G1 X96.098 Y104.892 E25.14411
G1 X96.098 Y106.315 E25.2151
G1 X96.058 Y106.53 E25.22601
G1 X95.945 Y106.716 E25.23687
G1 X95.772 Y106.849 E25.24775
G1 X95.498 Y106.915 E25.26182
G1 X88.598 Y106.915 E25.60606
G1 X88.598 Y116.703 E26.09438
G1 X90.998 Y116.703 E26.21412
G1 X91.213 Y116.743 E26.22503
G1 X91.399 Y116.856 E26.23589
G1 X91.499 Y116.986 E26.24407
G1 X91.549 Y116.904 E26.24886
G1 X91.721 Y116.77 E26.25974
G1 X91.929 Y116.706 E26.2706
G1 X92.146 Y116.721 E26.28145
G1 X93.289 Y117.012 E26.34029
G1 X93.353 Y117.032 E26.34364
G1 X94.46 Y117.45 E26.40267
G1 X94.521 Y117.477 E26.406
G1 X95.57 Y118.014 E26.46479
G1 X95.628 Y118.048 E26.46815
G1 X96.615 Y118.701 E26.52719
G1 X96.669 Y118.741 E26.53054
G1 X97.573 Y119.497 E26.58934
G1 X97.623 Y119.544 E26.59276
G1 X98.436 Y120.399 E26.65162
G1 X98.479 Y120.449 E26.65491
G1 X99.194 Y121.392 E26.71395
G1 X99.232 Y121.448 E26.71733
G1 X99.835 Y122.461 E26.77615
G1 X99.866 Y122.522 E26.77956
G1 X100.351 Y123.599 E26.83849
G1 X100.375 Y123.662 E26.84185
G1 X100.736 Y124.786 E26.90075
G1 X100.753 Y124.85 E26.90405
G1 X100.988 Y126.007 E26.96295
G1 X100.998 Y126.074 E26.96633
G1 X101.055 Y126.731 E26.99923
G1 X101.122 Y126.743 E27.00263
G1 X101.308 Y126.856 E27.01349
G1 X101.441 Y127.029 E27.02438
G1 X101.507 Y127.303 E27.03844
G1 X101.508 Y137.321 E27.53824
G1 X101.468 Y137.535 E27.5491
G1 X101.355 Y137.722 E27.56
G1 X101.182 Y137.855 E27.57088
G1 X101.049 Y137.904 E27.57796
G1 X84.139 Y141.987 E28.44584
G1 X83.921 Y141.999 E28.45674
G1 X83.713 Y141.932 E28.46764
G1 X83.543 Y141.795 E28.47853
G1 X83.433 Y141.607 E28.4894
G1 X83.398 Y141.404 E28.49968
G1 X83.398 Y136.852 E28.72678
G1 X83.38 Y136.437 E28.7475
G1 X78.925 Y122.106 E29.49623
G1 X78.898 Y121.928 E29.50521
G1 X78.899 Y69.959 E32.09795
G1 X78.899 Y69.785 E32.10663
G1 X78.939 Y69.57 E32.11754
G1 X79.052 Y69.384 E32.1284
G1 X79.225 Y69.251 E32.13929
G1 X79.499 Y69.185 E32.15335
G1 X81.495 Y69.186 E32.25293
G1 X81.71 Y69.226 E32.26384
G1 X81.896 Y69.34 E32.27472
G1 X82.029 Y69.512 E32.28557
G1 X82.095 Y69.786 E32.29963
G1 X82.094 Y71.502 E32.38524
G1 F1500 E25.88524
G0 F3600 X82.147 Y71.449
G0 X97.86 Y69.132
G0 X101.157 Y69.157
G0 X109.605 Y77.391
G0 X110.461 Y78.384
G0 X110.992 Y79.559
G0 X111.173 Y80.833
G0 X110.992 Y82.106
G0 X110.462 Y83.279
G0 X96.151 Y106.968
G0 X89.091 Y106.979
G0 X91.648 Y120.06
G0 X91.519 Y119.804
G1 F1500 E32.38524
G1 F1800 X91.445 Y119.926 E32.39236
G1 X91.272 Y120.059 E32.40325
G1 X91.044 Y120.123 E32.41506
G1 X90.088 Y120.196 E32.4629
G1 X88.296 Y120.806 E32.55734
G1 X86.721 Y121.858 E32.65183
G1 X85.473 Y123.278 E32.74615
G1 X84.638 Y124.972 E32.84037
G1 X84.269 Y126.829 E32.93483
G1 X84.392 Y128.717 E33.02922
G1 X84.999 Y130.504 E33.12338
G1 X86.05 Y132.08 E33.21788
G1 X87.463 Y133.319 E33.31164
G1 X89.159 Y134.158 E33.40604
G1 X91.013 Y134.53 E33.50038
G1 X92.902 Y134.411 E33.59481
G1 X94.688 Y133.806 E33.68889
G1 X96.268 Y132.755 E33.78356
G1 X97.513 Y131.339 E33.87763
G1 X98.352 Y129.642 E33.97208
G1 X98.724 Y127.787 E34.06647
G1 X98.605 Y125.899 E34.16085
G1 X98.002 Y124.113 E34.25489
G1 X96.951 Y122.535 E34.34948
G1 X95.523 Y121.279 E34.44436
G1 X93.827 Y120.444 E34.53867
G1 X91.894 Y120.057 E34.63703
G1 X91.692 Y119.976 E34.64788
G1 X91.531 Y119.828 E34.65879
G1 X91.519 Y119.804 E34.66013
G1 F1500 E28.16013
;MESH:Whistle-X-carriage_NoSupport.stl
G0 F3600 X90.584 Y117.717
G0 X87.624 Y117.732
G0 X87.498 Y96.003
G0 X87.798 Y96.003
;TYPE:WALL-OUTER
G1 F1500 E34.66013
G1 F1800 X95.298 Y96.003 E35.03431
G1 X95.298 Y100.603 E35.2638
G1 X87.798 Y100.603 E35.63798
G1 X87.798 Y105.092 E35.86194
G1 X95.298 Y105.092 E36.23611
G1 X95.298 Y106.115 E36.28715
G1 X87.798 Y106.115 E36.66133
G1 X87.798 Y117.143 E37.21152
G1 X87.832 Y117.503 E37.22956
G1 X90.798 Y117.503 E37.37753
G1 X90.798 Y119.34 E37.46918
G1 X89.927 Y119.407 E37.51276
G1 X87.938 Y120.082 E37.61755
G1 X86.19 Y121.249 E37.72241
G1 X84.803 Y122.829 E37.8273
G1 X83.874 Y124.714 E37.93214
G1 X83.464 Y126.776 E38.03703
G1 X83.6 Y128.873 E38.14187
G1 X84.276 Y130.863 E38.24672
G1 X85.443 Y132.612 E38.35162
G1 X87.015 Y133.99 E38.45592
G1 X88.898 Y134.922 E38.56074
G1 X90.958 Y135.335 E38.66556
G1 X93.056 Y135.203 E38.77043
G1 X95.047 Y134.529 E38.8753
G1 X96.797 Y133.365 E38.98016
G1 X98.184 Y131.787 E39.08497
G1 X99.116 Y129.903 E39.18984
G1 X99.529 Y127.843 E39.29466
G1 X99.397 Y125.745 E39.39954
G1 X98.724 Y123.754 E39.50439
G1 X97.559 Y122.004 E39.60927
G1 X95.972 Y120.609 E39.71469
G1 X94.087 Y119.679 E39.81955
G1 X92.211 Y119.306 E39.91498
G1 X92.201 Y117.819 E39.98917
G1 X92.2 Y117.818 E39.98924
G1 X92.2 Y117.561 E40.00206
G1 X92.45 Y117.624 E40.00984
G1 X93.082 Y117.784 E40.04237
G1 X94.167 Y118.194 E40.10024
G1 X95.196 Y118.721 E40.15791
G1 X96.167 Y119.363 E40.21599
G1 X97.047 Y120.1 E40.27326
G1 X97.852 Y120.945 E40.33148
G1 X98.548 Y121.865 E40.38903
G1 X99.143 Y122.864 E40.44705
G1 X99.618 Y123.918 E40.50472
G1 X99.971 Y125.016 E40.56226
G1 X100.202 Y126.158 E40.62039
G1 X100.319 Y127.503 E40.68775
G1 X100.707 Y127.503 E40.70711
G1 X100.708 Y137.157 E41.18875
G1 X100.458 Y137.209 E41.20148
G1 X84.444 Y141.091 E42.02357
G1 X84.198 Y141.15 E42.03619
G1 X84.198 Y140.898 E42.04382
G1 X84.198 Y140.896 E42.04392
G1 X84.198 Y136.848 E42.24588
G1 X84.175 Y136.298 E42.27334
G1 X79.698 Y121.898 E43.02568
G1 X79.699 Y72.502 E45.49006
G1 X79.699 Y72.302 E45.50003
G1 X79.899 Y72.302 E45.50649
G1 X100.302 Y72.303 E46.5244
G1 X100.302 Y77.164 E46.76692
G1 X105.46 Y77.178 E47.02425
G1 X106.257 Y77.18 E47.06402
G1 X106.669 Y77.181 E47.08457
G1 X107.188 Y77.183 E47.11047
G1 X108.158 Y77.481 E47.16109
G1 X109.032 Y78.05 E47.21312
G1 X109.726 Y78.854 E47.26611
G1 X110.154 Y79.801 E47.31796
G1 X110.3 Y80.833 E47.36996
G1 X110.154 Y81.864 E47.42191
G1 X109.726 Y82.811 E47.47375
G1 X109.05 Y83.604 E47.52574
G1 X108.201 Y84.162 E47.57643
G1 X107.208 Y84.474 E47.62836
G1 X100.302 Y84.501 E47.9729
G1 X100.302 Y88.211 E48.15799
G1 X100.262 Y88.93 E48.19392
G1 X100.14 Y89.545 E48.2252
G1 X99.94 Y90.134 E48.25623
G1 X99.663 Y90.695 E48.28745
G1 X99.313 Y91.221 E48.31897
G1 X98.895 Y91.698 E48.35061
G1 X98.423 Y92.112 E48.38193
G1 X97.9 Y92.462 E48.41333
G1 X97.34 Y92.738 E48.44448
G1 X96.746 Y92.939 E48.47576
